; Generated by Aprintlab Editor Cloud Slicer (Slic3r Compatibility Mode) on 29-01-2022
M107
M190 S60
M104 S210
G28 X0 Y0
G28 Z0
M109 S210
G21
G90
M82
G92 E0
G1 Z0.120 F4200.000
G1 E-3.00000 F2700.00000
G92 E0
G1 X15.727 Y18.146 F4200.000
G1 E3.00000 F2700.00000
M201 X500 Y500
M204 P500 T500
G1 F1800
G1 X17.480 Y16.663 E3.02455
G1 X19.634 Y15.866 E3.04910
G1 X20.829 Y15.757 E3.06192
G1 X97.171 Y15.757 E3.87793
G1 X99.433 Y16.154 E3.90248
G1 X101.425 Y17.298 E3.92703
G1 X102.908 Y19.051 E3.95157
G1 X103.705 Y21.205 E3.97612
G1 X103.814 Y22.400 E3.98895
G1 X103.814 Y29.600 E4.06591
G1 X103.417 Y31.862 E4.09046
G1 X102.273 Y33.854 E4.11501
G1 X100.520 Y35.337 E4.13955
G1 X98.366 Y36.134 E4.16410
G1 X97.171 Y36.243 E4.17693
G1 X20.829 Y36.243 E4.99294
G1 X18.567 Y35.846 E5.01748
G1 X16.575 Y34.702 E5.04203
G1 X15.092 Y32.949 E5.06658
G1 X14.295 Y30.795 E5.09113
G1 X14.186 Y29.600 E5.10396
G1 X14.186 Y22.400 E5.18092
G1 X14.583 Y20.138 E5.20546
G1 X15.704 Y18.185 E5.22953
G1 X15.939 Y18.227 F4200.000
G1 F1800
G1 X17.685 Y16.793 E5.25367
G1 X20.829 Y15.972 E5.28841
G1 X97.171 Y15.972 E6.10442
G1 X99.395 Y16.368 E6.12857
G1 X101.344 Y17.510 E6.15271
G1 X102.778 Y19.256 E6.17686
G1 X103.599 Y22.400 E6.21160
G1 X103.599 Y29.600 E6.28856
G1 X103.203 Y31.824 E6.31270
G1 X102.061 Y33.773 E6.33685
G1 X100.315 Y35.207 E6.36099
G1 X97.171 Y36.028 E6.39573
G1 X20.829 Y36.028 E7.21174
G1 X18.605 Y35.632 E7.23589
G1 X16.656 Y34.490 E7.26003
G1 X15.222 Y32.744 E7.28418
G1 X14.401 Y29.600 E7.31892
G1 X14.401 Y22.400 E7.39588
G1 X14.797 Y20.176 E7.42002
G1 X15.916 Y18.266 E7.44369
G1 X16.151 Y18.309 F4200.000
G1 F1800
G1 X17.888 Y16.926 E7.46742
G1 X20.829 Y16.186 E7.49984
G1 X97.171 Y16.186 E8.31584
G1 X99.356 Y16.583 E8.33958
G1 X101.262 Y17.722 E8.36332
G1 X102.645 Y19.459 E8.38705
G1 X103.385 Y22.400 E8.41947
G1 X103.385 Y29.600 E8.49643
G1 X102.988 Y31.785 E8.52016
G1 X101.849 Y33.691 E8.54390
G1 X100.112 Y35.074 E8.56764
G1 X97.171 Y35.814 E8.60005
G1 X20.829 Y35.814 E9.41606
G1 X18.644 Y35.417 E9.43979
G1 X16.738 Y34.278 E9.46353
G1 X15.355 Y32.541 E9.48727
G1 X14.615 Y29.600 E9.51968
G1 X14.615 Y22.400 E9.59664
G1 X15.012 Y20.215 E9.62038
G1 X16.128 Y18.348 E9.64363
G1 E6.64363 F2700.00000
G92 E0
G1 X21.592 Y28.837 F4200.000
G1 E3.00000 F2700.00000
G1 F1800
G1 X21.592 Y23.163 E3.06065
G1 X96.408 Y23.163 E3.86036
G1 X96.408 Y28.837 E3.92101
G1 X21.637 Y28.837 E4.72023
G1 X21.378 Y29.052 F4200.000
G1 F1800
G1 X21.378 Y22.948 E4.78547
G1 X96.622 Y22.948 E5.58975
G1 X96.622 Y29.052 E5.65498
G1 X21.423 Y29.052 E6.45878
G1 X21.163 Y29.266 F4200.000
G1 F1800
G1 X21.163 Y22.734 E6.52860
G1 X96.837 Y22.734 E7.33746
G1 X96.837 Y29.266 E7.40728
G1 X21.208 Y29.266 E8.21566
G1 X20.949 Y29.480 F4200.000
G1 F1800
G1 X20.949 Y22.520 E8.29005
G1 X97.051 Y22.520 E9.10350
G1 X97.051 Y29.480 E9.17789
G1 X20.994 Y29.480 E9.99085
G1 X21.091 Y29.216 F4200.000
G1 E6.99085 F2700.00000
G92 E0
G1 X21.890 Y23.294 F4200.000
G1 E3.00000 F2700.00000
G1 F1800
G1 X21.723 Y23.461 E3.00253
G1 X21.723 Y23.765 E3.00579
G1 X22.194 Y23.294 E3.01294
G1 X22.498 Y23.294 E3.01620
G1 X21.723 Y24.069 E3.02795
G1 X21.723 Y24.373 E3.03121
G1 X22.802 Y23.294 E3.04757
G1 X23.106 Y23.294 E3.05083
G1 X21.723 Y24.677 E3.07180
G1 X21.723 Y24.980 E3.07506
G1 X23.410 Y23.294 E3.10064
G1 X23.713 Y23.294 E3.10389
G1 X21.723 Y25.284 E3.13408
G1 X21.723 Y25.588 E3.13734
G1 X24.017 Y23.294 E3.17214
G1 X24.321 Y23.294 E3.17540
G1 X21.723 Y25.892 E3.21480
G1 X21.723 Y26.196 E3.21806
G1 X24.625 Y23.294 E3.26208
G1 X24.929 Y23.294 E3.26534
G1 X21.723 Y26.500 E3.31396
G1 X21.723 Y26.804 E3.31722
G1 X25.233 Y23.294 E3.37045
G1 X25.537 Y23.294 E3.37371
G1 X21.723 Y27.108 E3.43155
G1 X21.723 Y27.412 E3.43481
G1 X25.841 Y23.294 E3.49726
G1 X26.145 Y23.294 E3.50052
G1 X21.723 Y27.716 E3.56758
G1 X21.723 Y28.020 E3.57084
G1 X26.449 Y23.294 E3.64251
G1 X26.753 Y23.294 E3.64577
G1 X21.723 Y28.324 E3.72205
G1 X21.723 Y28.628 E3.72531
G1 X27.057 Y23.294 E3.80619
G1 X27.361 Y23.294 E3.80945
G1 X21.948 Y28.706 E3.89153
G1 X22.252 Y28.706 E3.89479
G1 X27.665 Y23.294 E3.97687
G1 X27.969 Y23.294 E3.98013
G1 X22.556 Y28.706 E4.06220
G1 X22.860 Y28.706 E4.06546
G1 X28.273 Y23.294 E4.14754
G1 X28.577 Y23.294 E4.15080
G1 X23.164 Y28.706 E4.23288
G1 X23.468 Y28.706 E4.23613
G1 X28.881 Y23.294 E4.31821
G1 X29.184 Y23.294 E4.32147
G1 X23.772 Y28.706 E4.40355
G1 X24.076 Y28.706 E4.40681
G1 X29.488 Y23.294 E4.48889
G1 X29.792 Y23.294 E4.49214
G1 X24.380 Y28.706 E4.57422
G1 X24.684 Y28.706 E4.57748
G1 X30.096 Y23.294 E4.65956
G1 X30.400 Y23.294 E4.66282
G1 X24.988 Y28.706 E4.74489
G1 X25.292 Y28.706 E4.74815
G1 X30.704 Y23.294 E4.83023
G1 X31.008 Y23.294 E4.83349
G1 X25.595 Y28.706 E4.91557
G1 X25.899 Y28.706 E4.91883
G1 X31.312 Y23.294 E5.00090
G1 X31.616 Y23.294 E5.00416
G1 X26.203 Y28.706 E5.08624
G1 X26.507 Y28.706 E5.08950
G1 X31.920 Y23.294 E5.17158
G1 X32.224 Y23.294 E5.17484
G1 X26.811 Y28.706 E5.25691
G1 X27.115 Y28.706 E5.26017
G1 X32.528 Y23.294 E5.34225
G1 X32.832 Y23.294 E5.34551
G1 X27.419 Y28.706 E5.42759
G1 X27.723 Y28.706 E5.43085
G1 X33.136 Y23.294 E5.51292
G1 X33.440 Y23.294 E5.51618
G1 X28.027 Y28.706 E5.59826
G1 X28.331 Y28.706 E5.60152
G1 X33.744 Y23.294 E5.68360
G1 X34.048 Y23.294 E5.68686
G1 X28.635 Y28.706 E5.76893
G1 X28.939 Y28.706 E5.77219
G1 X34.352 Y23.294 E5.85427
G1 X34.655 Y23.294 E5.85753
G1 X29.243 Y28.706 E5.93961
G1 X29.547 Y28.706 E5.94286
G1 X34.959 Y23.294 E6.02494
G1 X35.263 Y23.294 E6.02820
G1 X29.851 Y28.706 E6.11028
G1 X30.155 Y28.706 E6.11354
G1 X35.567 Y23.294 E6.19562
G1 X35.871 Y23.294 E6.19887
G1 X30.459 Y28.706 E6.28095
G1 X30.762 Y28.706 E6.28421
G1 X36.175 Y23.294 E6.36629
G1 X36.479 Y23.294 E6.36955
G1 X31.066 Y28.706 E6.45162
G1 X31.370 Y28.706 E6.45488
G1 X36.783 Y23.294 E6.53696
G1 X37.087 Y23.294 E6.54022
G1 X31.674 Y28.706 E6.62230
G1 X31.978 Y28.706 E6.62556
G1 X37.391 Y23.294 E6.70763
G1 X37.695 Y23.294 E6.71089
G1 X32.282 Y28.706 E6.79297
G1 X32.586 Y28.706 E6.79623
G1 X37.999 Y23.294 E6.87831
G1 X38.303 Y23.294 E6.88157
G1 X32.890 Y28.706 E6.96364
G1 X33.194 Y28.706 E6.96690
G1 X38.607 Y23.294 E7.04898
G1 X38.911 Y23.294 E7.05224
G1 X33.498 Y28.706 E7.13432
G1 X33.802 Y28.706 E7.13758
G1 X39.215 Y23.294 E7.21965
G1 X39.519 Y23.294 E7.22291
G1 X34.106 Y28.706 E7.30499
G1 X34.410 Y28.706 E7.30825
G1 X39.823 Y23.294 E7.39033
G1 X40.126 Y23.294 E7.39359
G1 X34.714 Y28.706 E7.47566
G1 X35.018 Y28.706 E7.47892
G1 X40.430 Y23.294 E7.56100
G1 X40.734 Y23.294 E7.56426
G1 X35.322 Y28.706 E7.64634
G1 X35.626 Y28.706 E7.64960
G1 X41.038 Y23.294 E7.73167
G1 X41.342 Y23.294 E7.73493
G1 X35.930 Y28.706 E7.81701
G1 X36.233 Y28.706 E7.82027
G1 X41.646 Y23.294 E7.90235
G1 X41.950 Y23.294 E7.90560
G1 X36.537 Y28.706 E7.98768
G1 X36.841 Y28.706 E7.99094
G1 X42.254 Y23.294 E8.07302
G1 X42.558 Y23.294 E8.07628
G1 X37.145 Y28.706 E8.15836
G1 X37.449 Y28.706 E8.16161
G1 X42.862 Y23.294 E8.24369
G1 X43.166 Y23.294 E8.24695
G1 X37.753 Y28.706 E8.32903
G1 X38.057 Y28.706 E8.33229
G1 X43.470 Y23.294 E8.41436
G1 X43.774 Y23.294 E8.41762
G1 X38.361 Y28.706 E8.49970
G1 X38.665 Y28.706 E8.50296
G1 X44.078 Y23.294 E8.58504
G1 X44.382 Y23.294 E8.58830
G1 X38.969 Y28.706 E8.67037
G1 X39.273 Y28.706 E8.67363
G1 X44.686 Y23.294 E8.75571
G1 X44.990 Y23.294 E8.75897
G1 X39.577 Y28.706 E8.84105
G1 X39.881 Y28.706 E8.84431
G1 X45.294 Y23.294 E8.92638
G1 X45.597 Y23.294 E8.92964
G1 X40.185 Y28.706 E9.01172
G1 X40.489 Y28.706 E9.01498
G1 X45.901 Y23.294 E9.09706
G1 X46.205 Y23.294 E9.10032
G1 X40.793 Y28.706 E9.18239
G1 X41.097 Y28.706 E9.18565
G1 X46.509 Y23.294 E9.26773
G1 X46.813 Y23.294 E9.27099
G1 X41.401 Y28.706 E9.35307
G1 X41.704 Y28.706 E9.35633
G1 X47.117 Y23.294 E9.43840
G1 X47.421 Y23.294 E9.44166
G1 X42.008 Y28.706 E9.52374
G1 X42.312 Y28.706 E9.52700
G1 X47.725 Y23.294 E9.60908
G1 X48.029 Y23.294 E9.61233
G1 X42.616 Y28.706 E9.69441
G1 X42.920 Y28.706 E9.69767
G1 X48.333 Y23.294 E9.77975
G1 X48.637 Y23.294 E9.78301
G1 X43.224 Y28.706 E9.86509
G1 X43.528 Y28.706 E9.86834
G1 X48.941 Y23.294 E9.95042
G1 X49.245 Y23.294 E9.95368
G1 X43.832 Y28.706 E10.03576
G1 X44.136 Y28.706 E10.03902
G1 X49.549 Y23.294 E10.12110
G1 X49.853 Y23.294 E10.12435
G1 X44.440 Y28.706 E10.20643
G1 X44.744 Y28.706 E10.20969
G1 X50.157 Y23.294 E10.29177
G1 X50.461 Y23.294 E10.29503
G1 X45.048 Y28.706 E10.37710
G1 X45.352 Y28.706 E10.38036
G1 X50.765 Y23.294 E10.46244
G1 X51.068 Y23.294 E10.46570
G1 X45.656 Y28.706 E10.54778
G1 X45.960 Y28.706 E10.55104
G1 X51.372 Y23.294 E10.63311
G1 X51.676 Y23.294 E10.63637
G1 X46.264 Y28.706 E10.71845
G1 X46.568 Y28.706 E10.72171
G1 X51.980 Y23.294 E10.80379
G1 X52.284 Y23.294 E10.80705
G1 X46.872 Y28.706 E10.88912
G1 X47.175 Y28.706 E10.89238
G1 X52.588 Y23.294 E10.97446
G1 X52.892 Y23.294 E10.97772
G1 X47.479 Y28.706 E11.05980
G1 X47.783 Y28.706 E11.06306
G1 X53.196 Y23.294 E11.14513
G1 X53.500 Y23.294 E11.14839
G1 X48.087 Y28.706 E11.23047
G1 X48.391 Y28.706 E11.23373
G1 X53.804 Y23.294 E11.31581
G1 X54.108 Y23.294 E11.31907
G1 X48.695 Y28.706 E11.40114
G1 X48.999 Y28.706 E11.40440
G1 X54.412 Y23.294 E11.48648
G1 X54.716 Y23.294 E11.48974
G1 X49.303 Y28.706 E11.57182
G1 X49.607 Y28.706 E11.57507
G1 X55.020 Y23.294 E11.65715
G1 X55.324 Y23.294 E11.66041
G1 X49.911 Y28.706 E11.74249
G1 X50.215 Y28.706 E11.74575
G1 X55.628 Y23.294 E11.82783
G1 X55.932 Y23.294 E11.83108
G1 X50.519 Y28.706 E11.91316
G1 X50.823 Y28.706 E11.91642
G1 X56.236 Y23.294 E11.99850
G1 X56.539 Y23.294 E12.00176
G1 X51.127 Y28.706 E12.08383
G1 X51.431 Y28.706 E12.08709
G1 X56.843 Y23.294 E12.16917
G1 X57.147 Y23.294 E12.17243
G1 X51.735 Y28.706 E12.25451
G1 X52.039 Y28.706 E12.25777
G1 X57.451 Y23.294 E12.33984
G1 X57.755 Y23.294 E12.34310
G1 X52.343 Y28.706 E12.42518
G1 X52.646 Y28.706 E12.42844
G1 X58.059 Y23.294 E12.51052
G1 X58.363 Y23.294 E12.51378
G1 X52.950 Y28.706 E12.59585
G1 X53.254 Y28.706 E12.59911
G1 X58.667 Y23.294 E12.68119
G1 X58.971 Y23.294 E12.68445
G1 X53.558 Y28.706 E12.76653
G1 X53.862 Y28.706 E12.76979
G1 X59.275 Y23.294 E12.85186
G1 X59.579 Y23.294 E12.85512
G1 X54.166 Y28.706 E12.93720
G1 X54.470 Y28.706 E12.94046
G1 X59.883 Y23.294 E13.02254
G1 X60.187 Y23.294 E13.02580
G1 X54.774 Y28.706 E13.10787
G1 X55.078 Y28.706 E13.11113
G1 X60.491 Y23.294 E13.19321
G1 X60.795 Y23.294 E13.19647
G1 X55.382 Y28.706 E13.27855
G1 X55.686 Y28.706 E13.28181
G1 X61.099 Y23.294 E13.36388
G1 X61.403 Y23.294 E13.36714
G1 X55.990 Y28.706 E13.44922
G1 X56.294 Y28.706 E13.45248
G1 X61.707 Y23.294 E13.53456
G1 X62.010 Y23.294 E13.53781
G1 X56.598 Y28.706 E13.61989
G1 X56.902 Y28.706 E13.62315
G1 X62.314 Y23.294 E13.70523
G1 X62.618 Y23.294 E13.70849
G1 X57.206 Y28.706 E13.79057
G1 X57.510 Y28.706 E13.79382
G1 X62.922 Y23.294 E13.87590
G1 X63.226 Y23.294 E13.87916
G1 X57.814 Y28.706 E13.96124
G1 X58.117 Y28.706 E13.96450
G1 X63.530 Y23.294 E14.04657
G1 X63.834 Y23.294 E14.04983
G1 X58.421 Y28.706 E14.13191
G1 X58.725 Y28.706 E14.13517
G1 X64.138 Y23.294 E14.21725
G1 X64.442 Y23.294 E14.22051
G1 X59.029 Y28.706 E14.30258
G1 X59.333 Y28.706 E14.30584
G1 X64.746 Y23.294 E14.38792
G1 X65.050 Y23.294 E14.39118
G1 X59.637 Y28.706 E14.47326
G1 X59.941 Y28.706 E14.47652
G1 X65.354 Y23.294 E14.55859
G1 X65.658 Y23.294 E14.56185
G1 X60.245 Y28.706 E14.64393
G1 X60.549 Y28.706 E14.64719
G1 X65.962 Y23.294 E14.72927
G1 X66.266 Y23.294 E14.73253
G1 X60.853 Y28.706 E14.81460
G1 X61.157 Y28.706 E14.81786
G1 X66.570 Y23.294 E14.89994
G1 X66.874 Y23.294 E14.90320
G1 X61.461 Y28.706 E14.98528
G1 X61.765 Y28.706 E14.98854
G1 X67.178 Y23.294 E15.07061
G1 X67.481 Y23.294 E15.07387
G1 X62.069 Y28.706 E15.15595
G1 X62.373 Y28.706 E15.15921
G1 X67.785 Y23.294 E15.24129
G1 X68.089 Y23.294 E15.24455
G1 X62.677 Y28.706 E15.32662
G1 X62.981 Y28.706 E15.32988
G1 X68.393 Y23.294 E15.41196
G1 X68.697 Y23.294 E15.41522
G1 X63.285 Y28.706 E15.49730
G1 X63.588 Y28.706 E15.50055
G1 X69.001 Y23.294 E15.58263
G1 X69.305 Y23.294 E15.58589
G1 X63.892 Y28.706 E15.66797
G1 X64.196 Y28.706 E15.67123
G1 X69.609 Y23.294 E15.75331
G1 X69.913 Y23.294 E15.75656
G1 X64.500 Y28.706 E15.83864
G1 X64.804 Y28.706 E15.84190
G1 X70.217 Y23.294 E15.92398
G1 X70.521 Y23.294 E15.92724
G1 X65.108 Y28.706 E16.00931
G1 X65.412 Y28.706 E16.01257
G1 X70.825 Y23.294 E16.09465
G1 X71.129 Y23.294 E16.09791
G1 X65.716 Y28.706 E16.17999
G1 X66.020 Y28.706 E16.18325
G1 X71.433 Y23.294 E16.26532
G1 X71.737 Y23.294 E16.26858
G1 X66.324 Y28.706 E16.35066
G1 X66.628 Y28.706 E16.35392
G1 X72.041 Y23.294 E16.43600
G1 X72.345 Y23.294 E16.43926
G1 X66.932 Y28.706 E16.52133
G1 X67.236 Y28.706 E16.52459
G1 X72.649 Y23.294 E16.60667
G1 X72.952 Y23.294 E16.60993
G1 X67.540 Y28.706 E16.69201
G1 X67.844 Y28.706 E16.69527
G1 X73.256 Y23.294 E16.77734
G1 X73.560 Y23.294 E16.78060
G1 X68.148 Y28.706 E16.86268
G1 X68.452 Y28.706 E16.86594
G1 X73.864 Y23.294 E16.94802
G1 X74.168 Y23.294 E16.95128
G1 X68.756 Y28.706 E17.03335
G1 X69.059 Y28.706 E17.03661
G1 X74.472 Y23.294 E17.11869
G1 X74.776 Y23.294 E17.12195
G1 X69.363 Y28.706 E17.20403
G1 X69.667 Y28.706 E17.20729
G1 X75.080 Y23.294 E17.28936
G1 X75.384 Y23.294 E17.29262
G1 X69.971 Y28.706 E17.37470
G1 X70.275 Y28.706 E17.37796
G1 X75.688 Y23.294 E17.46004
G1 X75.992 Y23.294 E17.46329
G1 X70.579 Y28.706 E17.54537
G1 X70.883 Y28.706 E17.54863
G1 X76.296 Y23.294 E17.63071
G1 X76.600 Y23.294 E17.63397
G1 X71.187 Y28.706 E17.71605
G1 X71.491 Y28.706 E17.71930
G1 X76.904 Y23.294 E17.80138
G1 X77.208 Y23.294 E17.80464
G1 X71.795 Y28.706 E17.88672
G1 X72.099 Y28.706 E17.88998
G1 X77.512 Y23.294 E17.97205
G1 X77.816 Y23.294 E17.97531
G1 X72.403 Y28.706 E18.05739
G1 X72.707 Y28.706 E18.06065
G1 X78.120 Y23.294 E18.14273
G1 X78.423 Y23.294 E18.14599
G1 X73.011 Y28.706 E18.22806
G1 X73.315 Y28.706 E18.23132
G1 X78.727 Y23.294 E18.31340
G1 X79.031 Y23.294 E18.31666
G1 X73.619 Y28.706 E18.39874
G1 X73.923 Y28.706 E18.40200
G1 X79.335 Y23.294 E18.48407
G1 X79.639 Y23.294 E18.48733
G1 X74.227 Y28.706 E18.56941
G1 X74.530 Y28.706 E18.57267
G1 X79.943 Y23.294 E18.65475
G1 X80.247 Y23.294 E18.65801
G1 X74.834 Y28.706 E18.74008
G1 X75.138 Y28.706 E18.74334
G1 X80.551 Y23.294 E18.82542
G1 X80.855 Y23.294 E18.82868
G1 X75.442 Y28.706 E18.91076
G1 X75.746 Y28.706 E18.91402
G1 X81.159 Y23.294 E18.99609
G1 X81.463 Y23.294 E18.99935
G1 X76.050 Y28.706 E19.08143
G1 X76.354 Y28.706 E19.08469
G1 X81.767 Y23.294 E19.16677
G1 X82.071 Y23.294 E19.17002
G1 X76.658 Y28.706 E19.25210
G1 X76.962 Y28.706 E19.25536
G1 X82.375 Y23.294 E19.33744
G1 X82.679 Y23.294 E19.34070
G1 X77.266 Y28.706 E19.42278
G1 X77.570 Y28.706 E19.42603
G1 X82.983 Y23.294 E19.50811
G1 X83.287 Y23.294 E19.51137
G1 X77.874 Y28.706 E19.59345
G1 X78.178 Y28.706 E19.59671
G1 X83.591 Y23.294 E19.67878
G1 X83.894 Y23.294 E19.68204
G1 X78.482 Y28.706 E19.76412
G1 X78.786 Y28.706 E19.76738
G1 X84.198 Y23.294 E19.84946
G1 X84.502 Y23.294 E19.85272
G1 X79.090 Y28.706 E19.93479
G1 X79.394 Y28.706 E19.93805
G1 X84.806 Y23.294 E20.02013
G1 X85.110 Y23.294 E20.02339
G1 X79.698 Y28.706 E20.10547
G1 X80.001 Y28.706 E20.10873
G1 X85.414 Y23.294 E20.19080
G1 X85.718 Y23.294 E20.19406
G1 X80.305 Y28.706 E20.27614
G1 X80.609 Y28.706 E20.27940
G1 X86.022 Y23.294 E20.36148
G1 X86.326 Y23.294 E20.36474
G1 X80.913 Y28.706 E20.44681
G1 X81.217 Y28.706 E20.45007
G1 X86.630 Y23.294 E20.53215
G1 X86.934 Y23.294 E20.53541
G1 X81.521 Y28.706 E20.61749
G1 X81.825 Y28.706 E20.62075
G1 X87.238 Y23.294 E20.70282
G1 X87.542 Y23.294 E20.70608
G1 X82.129 Y28.706 E20.78816
G1 X82.433 Y28.706 E20.79142
G1 X87.846 Y23.294 E20.87350
G1 X88.150 Y23.294 E20.87676
G1 X82.737 Y28.706 E20.95883
G1 X83.041 Y28.706 E20.96209
G1 X88.454 Y23.294 E21.04417
G1 X88.758 Y23.294 E21.04743
G1 X83.345 Y28.706 E21.12951
G1 X83.649 Y28.706 E21.13276
G1 X89.062 Y23.294 E21.21484
G1 X89.365 Y23.294 E21.21810
G1 X83.953 Y28.706 E21.30018
G1 X84.257 Y28.706 E21.30344
G1 X89.669 Y23.294 E21.38552
G1 X89.973 Y23.294 E21.38877
G1 X84.561 Y28.706 E21.47085
G1 X84.865 Y28.706 E21.47411
G1 X90.277 Y23.294 E21.55619
G1 X90.581 Y23.294 E21.55945
G1 X85.169 Y28.706 E21.64152
G1 X85.472 Y28.706 E21.64478
G1 X90.885 Y23.294 E21.72686
