; Generated by Aprintlab Editor Cloud Slicer (Slic3r Compatibility Mode) on 30-01-2022
M107
M190 S55
M104 S210
G28 X0 Y0
G28 Z0
M109 S210
G21
G90
M82
G92 E0
G1 Z0.100 F4200.000
G1 E-3.00000 F2700.00000
G92 E0
G1 X14.242 Y2.460 F4200.000
G1 E3.00000 F2700.00000
M201 X500 Y500
M204 P500 T500
G1 F1800
G1 X15.218 Y0.104 E3.01893
G1 X15.652 Y-0.545 E3.02473
G1 X17.455 Y-2.348 E3.04366
G1 X18.104 Y-2.782 E3.04945
G1 X20.460 Y-3.758 E3.06838
G1 X21.231 Y-3.911 E3.07421
G1 X22.500 Y-4.036 E3.08368
G1 X101.500 Y-4.036 E3.67008
G1 X102.775 Y-3.910 E3.67959
G1 X103.543 Y-3.757 E3.68541
G1 X105.896 Y-2.782 E3.70431
G1 X106.545 Y-2.348 E3.71011
G1 X108.348 Y-0.545 E3.72904
G1 X108.782 Y0.104 E3.73483
G1 X109.758 Y2.460 E3.75376
G1 X109.910 Y3.225 E3.75955
G1 X110.036 Y4.500 E3.76906
G1 X110.036 Y45.500 E4.07340
G1 X109.910 Y46.775 E4.08291
G1 X109.758 Y47.540 E4.08870
G1 X108.782 Y49.896 E4.10763
G1 X108.348 Y50.545 E4.11342
G1 X106.545 Y52.348 E4.13235
G1 X105.896 Y52.782 E4.13814
G1 X103.540 Y53.758 E4.15707
G1 X102.775 Y53.910 E4.16286
G1 X101.500 Y54.036 E4.17237
G1 X22.500 Y54.036 E4.75877
G1 X21.225 Y53.910 E4.76828
G1 X20.455 Y53.757 E4.77411
G1 X18.105 Y52.783 E4.79299
G1 X17.455 Y52.348 E4.79880
G1 X15.652 Y50.545 E4.81773
G1 X15.218 Y49.896 E4.82352
G1 X14.242 Y47.540 E4.84245
G1 X14.087 Y46.762 E4.84834
G1 X13.964 Y45.500 E4.85775
G1 X13.964 Y4.500 E5.16209
G1 X14.090 Y3.225 E5.17160
G1 X14.233 Y2.504 E5.17705
G1 X14.417 Y2.495 F4200.000
G1 F1800
G1 X15.367 Y0.203 E5.19547
G1 X15.800 Y-0.446 E5.20126
G1 X17.554 Y-2.200 E5.21967
G1 X18.203 Y-2.633 E5.22546
G1 X20.494 Y-3.583 E5.24388
G1 X21.266 Y-3.736 E5.24971
G1 X22.500 Y-3.857 E5.25892
G1 X101.500 Y-3.857 E5.84532
G1 X102.740 Y-3.735 E5.85457
G1 X103.509 Y-3.582 E5.86039
G1 X105.797 Y-2.633 E5.87878
G1 X106.446 Y-2.200 E5.88457
G1 X108.200 Y-0.446 E5.90298
G1 X108.634 Y0.203 E5.90877
G1 X109.583 Y2.494 E5.92719
G1 X109.735 Y3.260 E5.93298
G1 X109.857 Y4.500 E5.94223
G1 X109.857 Y45.500 E6.24656
G1 X109.735 Y46.740 E6.25582
G1 X109.583 Y47.506 E6.26161
G1 X108.634 Y49.797 E6.28002
G1 X108.200 Y50.446 E6.28581
G1 X106.446 Y52.200 E6.30422
G1 X105.797 Y52.633 E6.31002
G1 X103.506 Y53.583 E6.32843
G1 X102.740 Y53.735 E6.33422
G1 X101.500 Y53.857 E6.34347
G1 X22.500 Y53.857 E6.92987
G1 X21.260 Y53.735 E6.93912
G1 X20.490 Y53.582 E6.94495
G1 X18.204 Y52.634 E6.96332
G1 X17.554 Y52.200 E6.96912
G1 X15.800 Y50.446 E6.98753
G1 X15.367 Y49.797 E6.99333
G1 X14.417 Y47.506 E7.01174
G1 X14.263 Y46.727 E7.01763
G1 X14.143 Y45.500 E7.02678
G1 X14.143 Y4.500 E7.33112
G1 X14.265 Y3.260 E7.34037
G1 X14.408 Y2.539 E7.34582
G1 X14.592 Y2.530 F4200.000
G1 F1800
G1 X15.515 Y0.302 E7.36372
G1 X15.949 Y-0.347 E7.36951
G1 X17.653 Y-2.051 E7.38741
G1 X18.302 Y-2.485 E7.39320
G1 X20.529 Y-3.408 E7.41109
G1 X21.300 Y-3.561 E7.41693
G1 X22.500 Y-3.679 E7.42588
G1 X101.500 Y-3.679 E8.01228
G1 X102.705 Y-3.560 E8.02127
G1 X103.474 Y-3.407 E8.02708
G1 X105.698 Y-2.485 E8.04496
G1 X106.347 Y-2.051 E8.05075
G1 X108.052 Y-0.347 E8.06864
G1 X108.485 Y0.302 E8.07444
G1 X109.408 Y2.529 E8.09233
G1 X109.560 Y3.295 E8.09812
G1 X109.679 Y4.500 E8.10711
G1 X109.679 Y45.500 E8.41145
G1 X109.560 Y46.705 E8.42044
G1 X109.408 Y47.471 E8.42623
G1 X108.485 Y49.698 E8.44413
G1 X108.052 Y50.347 E8.44992
G1 X106.347 Y52.051 E8.46781
G1 X105.698 Y52.485 E8.47361
G1 X103.471 Y53.408 E8.49150
G1 X102.705 Y53.560 E8.49729
G1 X101.500 Y53.679 E8.50629
G1 X22.500 Y53.679 E9.09269
G1 X21.295 Y53.560 E9.10168
G1 X20.525 Y53.407 E9.10751
G1 X18.303 Y52.486 E9.12536
G1 X17.653 Y52.051 E9.13116
G1 X15.949 Y50.347 E9.14905
G1 X15.515 Y49.698 E9.15485
G1 X14.592 Y47.471 E9.17274
G1 X14.438 Y46.693 E9.17863
G1 X14.321 Y45.500 E9.18752
G1 X14.321 Y4.500 E9.49186
G1 X14.440 Y3.295 E9.50085
G1 X14.583 Y2.574 E9.50630
G1 E6.50630 F2700.00000
G92 E0
G1 X35.092 Y3.136 F4200.000
G1 E3.00000 F2700.00000
G1 F1800
G1 X101.437 Y3.136 E3.49247
G1 X102.017 Y3.251 E3.49685
G1 X102.456 Y3.544 E3.50077
G1 X102.749 Y3.983 E3.50469
G1 X102.864 Y4.563 E3.50908
G1 X102.864 Y45.437 E3.81248
G1 X102.749 Y46.017 E3.81687
G1 X102.456 Y46.456 E3.82079
G1 X102.017 Y46.749 E3.82470
G1 X101.437 Y46.864 E3.82909
G1 X22.563 Y46.864 E4.41457
G1 X21.983 Y46.749 E4.41896
G1 X21.544 Y46.456 E4.42287
G1 X21.251 Y46.017 E4.42679
G1 X21.136 Y45.437 E4.43118
G1 X21.136 Y4.563 E4.73458
G1 X21.251 Y3.983 E4.73897
G1 X21.544 Y3.544 E4.74289
G1 X21.983 Y3.251 E4.74680
G1 X22.563 Y3.136 E4.75119
G1 X35.047 Y3.136 E4.84386
G1 X35.092 Y2.957 F4200.000
G1 F1800
G1 X101.455 Y2.957 E5.33646
G1 X102.086 Y3.083 E5.34124
G1 X102.585 Y3.415 E5.34569
G1 X102.917 Y3.913 E5.35013
G1 X103.043 Y4.545 E5.35491
G1 X103.043 Y45.455 E5.65858
G1 X102.917 Y46.087 E5.66337
G1 X102.585 Y46.585 E5.66781
G1 X102.087 Y46.917 E5.67225
G1 X101.455 Y47.043 E5.67703
G1 X22.545 Y47.043 E6.26277
G1 X21.913 Y46.917 E6.26755
G1 X21.415 Y46.585 E6.27200
G1 X21.083 Y46.087 E6.27644
G1 X20.957 Y45.455 E6.28122
G1 X20.957 Y4.545 E6.58489
G1 X21.083 Y3.913 E6.58967
G1 X21.415 Y3.415 E6.59412
G1 X21.913 Y3.083 E6.59856
G1 X22.545 Y2.957 E6.60334
G1 X35.047 Y2.957 E6.69614
G1 X35.092 Y2.779 F4200.000
G1 F1800
G1 X101.473 Y2.779 E7.18887
G1 X102.156 Y2.914 E7.19405
G1 X102.713 Y3.287 E7.19902
G1 X103.085 Y3.843 E7.20399
G1 X103.221 Y4.527 E7.20917
G1 X103.221 Y45.473 E7.51310
G1 X103.085 Y46.157 E7.51827
G1 X102.713 Y46.713 E7.52324
G1 X102.157 Y47.085 E7.52821
G1 X101.473 Y47.221 E7.53339
G1 X22.527 Y47.221 E8.11939
G1 X21.843 Y47.085 E8.12456
G1 X21.287 Y46.713 E8.12953
G1 X20.915 Y46.157 E8.13450
G1 X20.779 Y45.473 E8.13968
G1 X20.779 Y4.527 E8.44361
G1 X20.915 Y3.843 E8.44879
G1 X21.287 Y3.287 E8.45376
G1 X21.843 Y2.915 E8.45873
G1 X22.527 Y2.779 E8.46391
G1 X35.047 Y2.779 E8.55684
G1 X35.092 Y2.600 F4200.000
G1 F1800
G1 X101.490 Y2.600 E9.04970
G1 X102.226 Y2.746 E9.05526
G1 X102.842 Y3.158 E9.06077
G1 X103.254 Y3.774 E9.06626
G1 X103.400 Y4.510 E9.07184
G1 X103.400 Y45.490 E9.37602
G1 X103.254 Y46.226 E9.38160
G1 X102.842 Y46.842 E9.38709
G1 X102.226 Y47.254 E9.39259
G1 X101.490 Y47.400 E9.39816
G1 X22.510 Y47.400 E9.98442
G1 X21.774 Y47.254 E9.98999
G1 X21.158 Y46.842 E9.99549
G1 X20.746 Y46.226 E10.00099
G1 X20.600 Y45.490 E10.00656
G1 X20.600 Y4.510 E10.31075
G1 X20.746 Y3.774 E10.31632
G1 X21.158 Y3.158 E10.32182
G1 X21.774 Y2.746 E10.32731
G1 X22.510 Y2.600 E10.33288
G1 X35.047 Y2.600 E10.42595
G1 X35.243 Y2.859 F4200.000
G1 E7.42595 F2700.00000
G92 E0
G1 X21.743 Y3.603 F4200.000
G1 E3.00000 F2700.00000
G1 F1800
G1 X21.603 Y3.743 E3.00147
G1 X21.350 Y4.122 E3.00485
G1 X21.318 Y4.280 E3.00605
G1 X22.280 Y3.318 E3.01616
G1 X22.596 Y3.255 E3.01855
G1 X21.255 Y4.596 E3.03263
G1 X21.245 Y4.859 E3.03459
G1 X22.859 Y3.245 E3.05154
G1 X23.112 Y3.245 E3.05342
G1 X21.245 Y5.112 E3.07303
G1 X21.245 Y5.364 E3.07491
G1 X23.364 Y3.245 E3.09718
G1 X23.617 Y3.245 E3.09906
G1 X21.245 Y5.617 E3.12398
G1 X21.245 Y5.870 E3.12585
G1 X23.870 Y3.245 E3.15343
G1 X24.122 Y3.245 E3.15531
G1 X21.245 Y6.122 E3.18554
G1 X21.245 Y6.375 E3.18742
G1 X24.375 Y3.245 E3.22030
G1 X24.628 Y3.245 E3.22218
G1 X21.245 Y6.628 E3.25772
G1 X21.245 Y6.880 E3.25960
G1 X24.880 Y3.245 E3.29779
G1 X25.133 Y3.245 E3.29967
G1 X21.245 Y7.133 E3.34052
G1 X21.245 Y7.386 E3.34239
G1 X25.386 Y3.245 E3.38590
G1 X25.638 Y3.245 E3.38777
G1 X21.245 Y7.638 E3.43393
G1 X21.245 Y7.891 E3.43581
G1 X25.891 Y3.245 E3.48462
G1 X26.144 Y3.245 E3.48650
G1 X21.245 Y8.144 E3.53797
G1 X21.245 Y8.397 E3.53984
G1 X26.397 Y3.245 E3.59396
G1 X26.649 Y3.245 E3.59584
G1 X21.245 Y8.649 E3.65262
G1 X21.245 Y8.902 E3.65449
G1 X26.902 Y3.245 E3.71392
G1 X27.155 Y3.245 E3.71580
G1 X21.245 Y9.155 E3.77789
G1 X21.245 Y9.407 E3.77976
G1 X27.407 Y3.245 E3.84450
G1 X27.660 Y3.245 E3.84638
G1 X21.245 Y9.660 E3.91377
G1 X21.245 Y9.913 E3.91565
G1 X27.913 Y3.245 E3.98570
G1 X28.165 Y3.245 E3.98758
G1 X21.245 Y10.165 E4.06028
G1 X21.245 Y10.418 E4.06216
G1 X28.418 Y3.245 E4.13751
G1 X28.671 Y3.245 E4.13939
G1 X21.245 Y10.671 E4.21740
G1 X21.245 Y10.923 E4.21928
G1 X28.923 Y3.245 E4.29995
G1 X29.176 Y3.245 E4.30182
G1 X21.245 Y11.176 E4.38514
G1 X21.245 Y11.429 E4.38702
G1 X29.429 Y3.245 E4.47300
G1 X29.681 Y3.245 E4.47487
G1 X21.245 Y11.681 E4.56350
G1 X21.245 Y11.934 E4.56538
G1 X29.934 Y3.245 E4.65667
G1 X30.187 Y3.245 E4.65854
G1 X21.245 Y12.187 E4.75248
G1 X21.245 Y12.439 E4.75436
G1 X30.439 Y3.245 E4.85095
G1 X30.692 Y3.245 E4.85283
G1 X21.245 Y12.692 E4.95208
G1 X21.245 Y12.945 E4.95395
G1 X30.945 Y3.245 E5.05586
G1 X31.197 Y3.245 E5.05773
G1 X21.245 Y13.197 E5.16229
G1 X21.245 Y13.450 E5.16417
G1 X31.450 Y3.245 E5.27138
G1 X31.703 Y3.245 E5.27326
G1 X21.245 Y13.703 E5.38312
G1 X21.245 Y13.956 E5.38500
G1 X31.956 Y3.245 E5.49752
G1 X32.208 Y3.245 E5.49940
G1 X21.245 Y14.208 E5.61457
G1 X21.245 Y14.461 E5.61645
G1 X32.461 Y3.245 E5.73428
G1 X32.714 Y3.245 E5.73615
G1 X21.245 Y14.714 E5.85664
G1 X21.245 Y14.966 E5.85852
G1 X32.966 Y3.245 E5.98165
G1 X33.219 Y3.245 E5.98353
G1 X21.245 Y15.219 E6.10932
G1 X21.245 Y15.472 E6.11120
G1 X33.472 Y3.245 E6.23965
G1 X33.724 Y3.245 E6.24152
G1 X21.245 Y15.724 E6.37263
G1 X21.245 Y15.977 E6.37450
G1 X33.977 Y3.245 E6.50826
G1 X34.230 Y3.245 E6.51014
G1 X21.245 Y16.230 E6.64655
G1 X21.245 Y16.482 E6.64843
G1 X34.482 Y3.245 E6.78749
G1 X34.735 Y3.245 E6.78937
G1 X21.245 Y16.735 E6.93109
G1 X21.245 Y16.988 E6.93296
G1 X34.988 Y3.245 E7.07734
G1 X35.240 Y3.245 E7.07922
G1 X21.245 Y17.240 E7.22624
G1 X21.245 Y17.493 E7.22812
G1 X35.493 Y3.245 E7.37780
G1 X35.746 Y3.245 E7.37968
G1 X21.245 Y17.746 E7.53202
G1 X21.245 Y17.998 E7.53390
G1 X35.998 Y3.245 E7.68889
G1 X36.251 Y3.245 E7.69077
G1 X21.245 Y18.251 E7.84841
G1 X21.245 Y18.504 E7.85029
G1 X36.504 Y3.245 E8.01059
G1 X36.756 Y3.245 E8.01247
G1 X21.245 Y18.756 E8.17542
G1 X21.245 Y19.009 E8.17730
G1 X37.009 Y3.245 E8.34291
G1 X37.262 Y3.245 E8.34479
G1 X21.245 Y19.262 E8.51305
G1 X21.245 Y19.515 E8.51493
G1 X37.515 Y3.245 E8.68585
G1 X37.767 Y3.245 E8.68773
G1 X21.245 Y19.767 E8.86130
G1 X21.245 Y20.020 E8.86318
G1 X38.020 Y3.245 E9.03941
G1 X38.273 Y3.245 E9.04128
G1 X21.245 Y20.273 E9.22017
G1 X21.245 Y20.525 E9.22204
G1 X38.525 Y3.245 E9.40358
G1 X38.778 Y3.245 E9.40546
G1 X21.245 Y20.778 E9.58965
G1 X21.245 Y21.031 E9.59153
G1 X39.031 Y3.245 E9.77837
G1 X39.283 Y3.245 E9.78025
G1 X21.245 Y21.283 E9.96975
G1 X21.245 Y21.536 E9.97163
G1 X39.536 Y3.245 E10.16378
G1 X39.789 Y3.245 E10.16566
G1 X21.245 Y21.789 E10.36047
G1 X21.245 Y22.041 E10.36235
G1 X40.041 Y3.245 E10.55981
G1 X40.294 Y3.245 E10.56169
G1 X21.245 Y22.294 E10.76181
G1 X21.245 Y22.547 E10.76368
G1 X40.547 Y3.245 E10.96646
G1 X40.799 Y3.245 E10.96833
G1 X21.245 Y22.799 E11.17376
G1 X21.245 Y23.052 E11.17564
G1 X41.052 Y3.245 E11.38372
G1 X41.305 Y3.245 E11.38560
G1 X21.245 Y23.305 E11.59633
G1 X21.245 Y23.557 E11.59821
G1 X41.557 Y3.245 E11.81160
G1 X41.810 Y3.245 E11.81348
G1 X21.245 Y23.810 E12.02952
G1 X21.245 Y24.063 E12.03140
G1 X42.063 Y3.245 E12.25010
G1 X42.315 Y3.245 E12.25198
G1 X21.245 Y24.315 E12.47333
G1 X21.245 Y24.568 E12.47521
G1 X42.568 Y3.245 E12.69922
G1 X42.821 Y3.245 E12.70110
G1 X21.245 Y24.821 E12.92776
G1 X21.245 Y25.074 E12.92964
G1 X43.074 Y3.245 E13.15896
G1 X43.326 Y3.245 E13.16083
G1 X21.245 Y25.326 E13.39281
G1 X21.245 Y25.579 E13.39468
G1 X43.579 Y3.245 E13.62931
G1 X43.832 Y3.245 E13.63119
G1 X21.245 Y25.832 E13.86847
G1 X21.245 Y26.084 E13.87034
G1 X44.084 Y3.245 E14.11028
G1 X44.337 Y3.245 E14.11216
G1 X21.245 Y26.337 E14.35475
G1 X21.245 Y26.590 E14.35663
G1 X44.590 Y3.245 E14.60187
G1 X44.842 Y3.245 E14.60375
G1 X21.245 Y26.842 E14.85165
G1 X21.245 Y27.095 E14.85352
G1 X45.095 Y3.245 E15.10408
G1 X45.348 Y3.245 E15.10596
G1 X21.245 Y27.348 E15.35916
G1 X21.245 Y27.600 E15.36104
G1 X45.600 Y3.245 E15.61690
G1 X45.853 Y3.245 E15.61878
G1 X21.245 Y27.853 E15.87730
G1 X21.245 Y28.106 E15.87918
G1 X46.106 Y3.245 E16.14035
G1 X46.358 Y3.245 E16.14223
G1 X21.245 Y28.358 E16.40605
G1 X21.245 Y28.611 E16.40793
G1 X46.611 Y3.245 E16.67441
G1 X46.864 Y3.245 E16.67629
G1 X21.245 Y28.864 E16.94542
G1 X21.245 Y29.116 E16.94730
G1 X47.116 Y3.245 E17.21909
G1 X47.369 Y3.245 E17.22097
G1 X21.245 Y29.369 E17.49541
G1 X21.245 Y29.622 E17.49729
G1 X47.622 Y3.245 E17.77439
G1 X47.874 Y3.245 E17.77626
G1 X21.245 Y29.874 E18.05602
G1 X21.245 Y30.127 E18.05790
G1 X48.127 Y3.245 E18.34030
G1 X48.380 Y3.245 E18.34218
G1 X21.245 Y30.380 E18.62724
G1 X21.245 Y30.633 E18.62912
G1 X48.633 Y3.245 E18.91684
G1 X48.885 Y3.245 E18.91871
G1 X21.245 Y30.885 E19.20909
G1 X21.245 Y31.138 E19.21096
G1 X49.138 Y3.245 E19.50399
G1 X49.391 Y3.245 E19.50587
G1 X21.245 Y31.391 E19.80155
G1 X21.245 Y31.643 E19.80342
G1 X49.643 Y3.245 E20.10176
G1 X49.896 Y3.245 E20.10364
G1 X21.245 Y31.896 E20.40462
G1 X21.245 Y32.149 E20.40650
G1 X50.149 Y3.245 E20.71015
G1 X50.401 Y3.245 E20.71202
G1 X21.245 Y32.401 E21.01832
G1 X21.245 Y32.654 E21.02020
G1 X50.654 Y3.245 E21.32915
G1 X50.907 Y3.245 E21.33103
G1 X21.245 Y32.907 E21.64264
G1 X21.245 Y33.159 E21.64451
G1 X51.159 Y3.245 E21.95877
G1 X51.412 Y3.245 E21.96065
G1 X21.245 Y33.412 E22.27757
G1 X21.245 Y33.665 E22.27945
G1 X51.665 Y3.245 E22.59902
G1 X51.917 Y3.245 E22.60089
G1 X21.245 Y33.917 E22.92312
G1 X21.245 Y34.170 E22.92500
G1 X52.170 Y3.245 E23.24988
G1 X52.423 Y3.245 E23.25175
G1 X21.245 Y34.423 E23.57929
G1 X21.245 Y34.675 E23.58116
G1 X52.675 Y3.245 E23.91135
G1 X52.928 Y3.245 E23.91323
G1 X21.245 Y34.928 E24.24607
G1 X21.245 Y35.181 E24.24795
G1 X53.181 Y3.245 E24.58345
G1 X53.433 Y3.245 E24.58533
G1 X21.245 Y35.433 E24.92348
G1 X21.245 Y35.686 E24.92536
G1 X53.686 Y3.245 E25.26616
G1 X53.939 Y3.245 E25.26804
G1 X21.245 Y35.939 E25.61150
G1 X21.245 Y36.192 E25.61338
G1 X54.192 Y3.245 E25.95949
G1 X54.444 Y3.245 E25.96137
G1 X21.245 Y36.444 E26.31014
G1 X21.245 Y36.697 E26.31202
G1 X54.697 Y3.245 E26.66344
G1 X54.950 Y3.245 E26.66532
G1 X21.245 Y36.950 E27.01940
G1 X21.245 Y37.202 E27.02128
G1 X55.202 Y3.245 E27.37801
G1 X55.455 Y3.245 E27.37989
G1 X21.245 Y37.455 E27.73928
G1 X21.245 Y37.708 E27.74115
G1 X55.708 Y3.245 E28.10320
G1 X55.960 Y3.245 E28.10507
G1 X21.245 Y37.960 E28.46977
G1 X21.245 Y38.213 E28.47165
G1 X56.213 Y3.245 E28.83900
G1 X56.466 Y3.245 E28.84088
G1 X21.245 Y38.466 E29.21088
G1 X21.245 Y38.718 E29.21276
G1 X56.718 Y3.245 E29.58542
G1 X56.971 Y3.245 E29.58730
G1 X21.245 Y38.971 E29.96261
G1 X21.245 Y39.224 E29.96449
G1 X57.224 Y3.245 E30.34246
G1 X57.476 Y3.245 E30.34434
G1 X21.245 Y39.476 E30.72496
G1 X21.245 Y39.729 E30.72684
G1 X57.729 Y3.245 E31.11012
G1 X57.982 Y3.245 E31.11199
G1 X21.245 Y39.982 E31.49793
G1 X21.245 Y40.234 E31.49980
G1 X58.234 Y3.245 E31.88839
G1 X58.487 Y3.245 E31.89027
G1 X21.245 Y40.487 E32.28151
G1 X21.245 Y40.740 E32.28339
G1 X58.740 Y3.245 E32.67729
G1 X58.992 Y3.245 E32.67916
G1 X21.245 Y40.992 E33.07571
G1 X21.245 Y41.245 E33.07759
G1 X59.245 Y3.245 E33.47680
G1 X59.498 Y3.245 E33.47867
G1 X21.245 Y41.498 E33.88053
G1 X21.245 Y41.751 E33.88241
G1 X59.751 Y3.245 E34.28693
G1 X60.003 Y3.245 E34.28880
G1 X21.245 Y42.003 E34.69597
G1 X21.245 Y42.256 E34.69785
G1 X60.256 Y3.245 E35.10767
G1 X60.509 Y3.245 E35.10955
G1 X21.245 Y42.509 E35.52203
G1 X21.245 Y42.761 E35.52391
G1 X60.761 Y3.245 E35.93904
G1 X61.014 Y3.245 E35.94092
G1 X21.245 Y43.014 E36.35870
G1 X21.245 Y43.267 E36.36058
G1 X61.267 Y3.245 E36.78102
G1 X61.519 Y3.245 E36.78290
G1 X21.245 Y43.519 E37.20600
G1 X21.245 Y43.772 E37.20787
G1 X61.772 Y3.245 E37.63362
G1 X62.025 Y3.245 E37.63550
G1 X21.245 Y44.025 E38.06391
G1 X21.245 Y44.277 E38.06578
G1 X62.277 Y3.245 E38.49684
G1 X62.530 Y3.245 E38.49872
G1 X21.245 Y44.530 E38.93243
G1 X21.245 Y44.783 E38.93431
G1 X62.783 Y3.245 E39.37068
G1 X63.035 Y3.245 E39.37256
G1 X21.245 Y45.035 E39.81158
G1 X21.245 Y45.288 E39.81346
G1 X63.288 Y3.245 E40.25513
G1 X63.541 Y3.245 E40.25701
G1 X21.253 Y45.532 E40.70125
G1 X21.295 Y45.743 E40.70285
G1 X63.793 Y3.245 E41.14931
G1 X64.046 Y3.245 E41.15118
G1 X21.337 Y45.954 E41.59985
G1 X21.350 Y46.017 E41.60033
G1 X21.420 Y46.123 E41.60128
G1 X64.299 Y3.245 E42.05173
G1 X64.551 Y3.245 E42.05361
G1 X21.522 Y46.275 E42.50565
G1 X21.633 Y46.416 E42.50698
