; Generated by Aprintlab Editor Cloud Slicer (Slic3r Compatibility Mode) on 29-01-2022
M107
M190 S60
M104 S210
G28 X0 Y0
G28 Z0
M109 S210
G21
G90
M82
G92 E0
G1 Z0.120 F4200.000
G1 E-3.00000 F2700.00000
G92 E0
G1 X28.254 Y15.238 F4200.000
G1 E3.00000 F2700.00000
M201 X500 Y500
M204 P500 T500
G1 F1800
G1 X29.313 Y13.350 E3.02313
G1 X39.313 Y0.850 E3.19424
G1 X41.036 Y-0.668 E3.21879
G1 X43.173 Y-1.509 E3.24333
G1 X44.500 Y-1.643 E3.25759
G1 X81.500 Y-1.643 E3.65308
G1 X83.762 Y-1.246 E3.67763
G1 X85.754 Y-0.102 E3.70217
G1 X87.237 Y1.651 E3.72672
G1 X88.034 Y3.805 E3.75127
G1 X88.143 Y5.000 E3.76410
G1 X88.143 Y37.000 E4.10614
G1 X87.746 Y39.262 E4.13069
G1 X86.602 Y41.254 E4.15524
G1 X84.849 Y42.737 E4.17978
G1 X82.695 Y43.534 E4.20433
G1 X81.500 Y43.643 E4.21716
G1 X34.500 Y43.643 E4.71954
G1 X32.238 Y43.246 E4.74408
G1 X30.246 Y42.102 E4.76863
G1 X28.763 Y40.349 E4.79318
G1 X27.966 Y38.195 E4.81773
G1 X27.857 Y37.000 E4.83055
G1 X27.857 Y17.500 E5.03899
G1 X28.246 Y15.282 E5.06305
G1 X28.468 Y15.276 F4200.000
G1 F1800
G1 X29.480 Y13.484 E5.08505
G1 X39.480 Y0.984 E5.25616
G1 X41.179 Y-0.504 E5.28030
G1 X43.288 Y-1.313 E5.30445
G1 X44.500 Y-1.428 E5.31746
G1 X81.500 Y-1.428 E5.71294
G1 X83.724 Y-1.032 E5.73709
G1 X85.673 Y0.110 E5.76123
G1 X87.107 Y1.856 E5.78538
G1 X87.928 Y5.000 E5.82012
G1 X87.928 Y37.000 E6.16216
G1 X87.532 Y39.224 E6.18631
G1 X86.390 Y41.173 E6.21045
G1 X84.644 Y42.607 E6.23460
G1 X81.500 Y43.429 E6.26934
G1 X34.500 Y43.429 E6.77172
G1 X32.276 Y43.032 E6.79586
G1 X30.327 Y41.890 E6.82001
G1 X28.893 Y40.144 E6.84415
G1 X28.072 Y37.000 E6.87889
G1 X28.072 Y17.500 E7.08732
G1 X28.460 Y15.320 E7.11099
G1 X28.683 Y15.315 F4200.000
G1 F1800
G1 X29.647 Y13.618 E7.13186
G1 X39.647 Y1.118 E7.30296
G1 X41.322 Y-0.340 E7.32670
G1 X44.500 Y-1.214 E7.36193
G1 X81.500 Y-1.214 E7.75741
G1 X83.685 Y-0.817 E7.78115
G1 X85.591 Y0.322 E7.80489
G1 X86.974 Y2.059 E7.82862
G1 X87.714 Y5.000 E7.86104
G1 X87.714 Y37.000 E8.20308
G1 X87.317 Y39.185 E8.22682
G1 X86.178 Y41.091 E8.25055
G1 X84.441 Y42.474 E8.27429
G1 X81.500 Y43.214 E8.30670
G1 X34.500 Y43.214 E8.80908
G1 X32.315 Y42.817 E8.83282
G1 X30.409 Y41.678 E8.85655
G1 X29.026 Y39.941 E8.88029
G1 X28.286 Y37.000 E8.91270
G1 X28.286 Y17.500 E9.12113
G1 X28.674 Y15.359 E9.14439
G1 E6.14439 F2700.00000
G92 E0
G1 X80.737 Y5.763 F4200.000
G1 E3.00000 F2700.00000
G1 F1800
G1 X80.737 Y36.237 E3.32574
G1 X35.263 Y36.237 E3.81181
G1 X35.263 Y18.263 E4.00394
G1 X39.816 Y18.263 E4.05260
G1 X45.263 Y12.816 E4.13494
G1 X45.263 Y5.763 E4.21033
G1 X80.692 Y5.763 E4.58903
G1 X80.952 Y5.548 F4200.000
G1 F1800
G1 X80.952 Y36.452 E4.91935
G1 X35.048 Y36.452 E5.41000
G1 X35.048 Y18.048 E5.60671
G1 X39.727 Y18.048 E5.65672
G1 X45.048 Y12.727 E5.73716
G1 X45.048 Y5.548 E5.81389
G1 X80.907 Y5.548 E6.19717
G1 X81.166 Y5.334 F4200.000
G1 F1800
G1 X81.166 Y36.666 E6.53207
G1 X34.834 Y36.666 E7.02730
G1 X34.834 Y17.834 E7.22859
G1 X39.638 Y17.834 E7.27994
G1 X44.834 Y12.638 E7.35848
G1 X44.834 Y5.334 E7.43656
G1 X81.121 Y5.334 E7.82442
G1 X81.380 Y5.120 F4200.000
G1 F1800
G1 X81.380 Y36.880 E8.16390
G1 X34.620 Y36.880 E8.66371
G1 X34.620 Y17.620 E8.86957
G1 X39.550 Y17.620 E8.92227
G1 X44.620 Y12.550 E8.99891
G1 X44.620 Y5.120 E9.07833
G1 X81.335 Y5.120 E9.47077
G1 X81.248 Y5.389 F4200.000
G1 E6.47077 F2700.00000
G92 E0
G1 X80.440 Y36.106 F4200.000
G1 E3.00000 F2700.00000
G1 F1800
G1 X80.606 Y35.940 E3.00253
G1 X80.606 Y35.635 E3.00579
G1 X80.135 Y36.106 E3.01294
G1 X79.831 Y36.106 E3.01621
G1 X80.606 Y35.331 E3.02797
G1 X80.606 Y35.027 E3.03123
G1 X79.527 Y36.106 E3.04761
G1 X79.223 Y36.106 E3.05087
G1 X80.606 Y34.723 E3.07187
G1 X80.606 Y34.419 E3.07513
G1 X78.919 Y36.106 E3.10074
G1 X78.615 Y36.106 E3.10400
G1 X80.606 Y34.115 E3.13423
G1 X80.606 Y33.810 E3.13749
G1 X78.310 Y36.106 E3.17233
G1 X78.006 Y36.106 E3.17560
G1 X80.606 Y33.506 E3.21505
G1 X80.606 Y33.202 E3.21832
G1 X77.702 Y36.106 E3.26239
G1 X77.398 Y36.106 E3.26565
G1 X80.606 Y32.898 E3.31434
G1 X80.606 Y32.594 E3.31761
G1 X77.094 Y36.106 E3.37091
G1 X76.790 Y36.106 E3.37417
G1 X80.606 Y32.290 E3.43209
G1 X80.606 Y31.985 E3.43536
G1 X76.485 Y36.106 E3.49789
G1 X76.181 Y36.106 E3.50115
G1 X80.606 Y31.681 E3.56831
G1 X80.606 Y31.377 E3.57157
G1 X75.877 Y36.106 E3.64334
G1 X75.573 Y36.106 E3.64660
G1 X80.606 Y31.073 E3.72298
G1 X80.606 Y30.769 E3.72625
G1 X75.269 Y36.106 E3.80724
G1 X74.965 Y36.106 E3.81051
G1 X80.606 Y30.465 E3.89612
G1 X80.606 Y30.160 E3.89938
G1 X74.660 Y36.106 E3.98961
G1 X74.356 Y36.106 E3.99288
G1 X80.606 Y29.856 E4.08772
G1 X80.606 Y29.552 E4.09099
G1 X74.052 Y36.106 E4.19045
G1 X73.748 Y36.106 E4.19371
G1 X80.606 Y29.248 E4.29779
G1 X80.606 Y28.944 E4.30105
G1 X73.444 Y36.106 E4.40974
G1 X73.140 Y36.106 E4.41301
G1 X80.606 Y28.640 E4.52631
G1 X80.606 Y28.335 E4.52958
G1 X72.835 Y36.106 E4.64750
G1 X72.531 Y36.106 E4.65076
G1 X80.606 Y28.031 E4.77330
G1 X80.606 Y27.727 E4.77657
G1 X72.227 Y36.106 E4.90372
G1 X71.923 Y36.106 E4.90699
G1 X80.606 Y27.423 E5.03876
G1 X80.606 Y27.119 E5.04202
G1 X71.619 Y36.106 E5.17841
G1 X71.315 Y36.106 E5.18167
G1 X80.606 Y26.815 E5.32267
G1 X80.606 Y26.510 E5.32594
G1 X71.010 Y36.106 E5.47155
G1 X70.706 Y36.106 E5.47482
G1 X80.606 Y26.206 E5.62505
G1 X80.606 Y25.902 E5.62831
G1 X70.402 Y36.106 E5.78316
G1 X70.098 Y36.106 E5.78643
G1 X80.606 Y25.598 E5.94589
G1 X80.606 Y25.294 E5.94916
G1 X69.794 Y36.106 E6.11324
G1 X69.490 Y36.106 E6.11650
G1 X80.606 Y24.990 E6.28520
G1 X80.606 Y24.685 E6.28846
G1 X69.185 Y36.106 E6.46177
G1 X68.881 Y36.106 E6.46503
G1 X80.606 Y24.381 E6.64296
G1 X80.606 Y24.077 E6.64623
G1 X68.577 Y36.106 E6.82877
G1 X68.273 Y36.106 E6.83203
G1 X80.606 Y23.773 E7.01919
G1 X80.606 Y23.469 E7.02246
G1 X67.969 Y36.106 E7.21423
G1 X67.665 Y36.106 E7.21749
G1 X80.606 Y23.165 E7.41388
G1 X80.606 Y22.860 E7.41715
G1 X67.360 Y36.106 E7.61815
G1 X67.056 Y36.106 E7.62142
G1 X80.606 Y22.556 E7.82704
G1 X80.606 Y22.252 E7.83030
G1 X66.752 Y36.106 E8.04054
G1 X66.448 Y36.106 E8.04380
G1 X80.606 Y21.948 E8.25866
G1 X80.606 Y21.644 E8.26192
G1 X66.144 Y36.106 E8.48139
G1 X65.840 Y36.106 E8.48465
G1 X80.606 Y21.340 E8.70874
G1 X80.606 Y21.035 E8.71200
G1 X65.535 Y36.106 E8.94070
G1 X65.231 Y36.106 E8.94397
G1 X80.606 Y20.731 E9.17728
G1 X80.606 Y20.427 E9.18054
G1 X64.927 Y36.106 E9.41848
G1 X64.623 Y36.106 E9.42174
G1 X80.606 Y20.123 E9.66429
G1 X80.606 Y19.819 E9.66755
G1 X64.319 Y36.106 E9.91471
G1 X64.015 Y36.106 E9.91798
G1 X80.606 Y19.515 E10.16976
G1 X80.606 Y19.210 E10.17302
G1 X63.710 Y36.106 E10.42941
G1 X63.406 Y36.106 E10.43268
G1 X80.606 Y18.906 E10.69369
G1 X80.606 Y18.602 E10.69695
G1 X63.102 Y36.106 E10.96258
G1 X62.798 Y36.106 E10.96584
G1 X80.606 Y18.298 E11.23608
G1 X80.606 Y17.994 E11.23935
G1 X62.494 Y36.106 E11.51420
G1 X62.190 Y36.106 E11.51747
G1 X80.606 Y17.690 E11.79694
G1 X80.606 Y17.385 E11.80020
G1 X61.885 Y36.106 E12.08429
G1 X61.581 Y36.106 E12.08756
G1 X80.606 Y17.081 E12.37626
G1 X80.606 Y16.777 E12.37952
G1 X61.277 Y36.106 E12.67284
G1 X60.973 Y36.106 E12.67611
G1 X80.606 Y16.473 E12.97404
G1 X80.606 Y16.169 E12.97731
G1 X60.669 Y36.106 E13.27986
G1 X60.365 Y36.106 E13.28312
G1 X80.606 Y15.865 E13.59029
G1 X80.606 Y15.560 E13.59355
G1 X60.060 Y36.106 E13.90533
G1 X59.756 Y36.106 E13.90860
G1 X80.606 Y15.256 E14.22500
G1 X80.606 Y14.952 E14.22826
G1 X59.452 Y36.106 E14.54927
G1 X59.148 Y36.106 E14.55254
G1 X80.606 Y14.648 E14.87817
G1 X80.606 Y14.344 E14.88143
G1 X58.844 Y36.106 E15.21168
G1 X58.540 Y36.106 E15.21494
G1 X80.606 Y14.040 E15.54980
G1 X80.606 Y13.735 E15.55307
G1 X58.235 Y36.106 E15.89254
G1 X57.931 Y36.106 E15.89581
G1 X80.606 Y13.431 E16.23990
G1 X80.606 Y13.127 E16.24316
G1 X57.627 Y36.106 E16.59187
G1 X57.323 Y36.106 E16.59513
G1 X80.606 Y12.823 E16.94846
G1 X80.606 Y12.519 E16.95172
G1 X57.019 Y36.106 E17.30966
G1 X56.715 Y36.106 E17.31293
G1 X80.606 Y12.215 E17.67548
G1 X80.606 Y11.910 E17.67874
G1 X56.410 Y36.106 E18.04592
G1 X56.106 Y36.106 E18.04918
G1 X80.606 Y11.606 E18.42097
G1 X80.606 Y11.302 E18.42423
G1 X55.802 Y36.106 E18.80063
G1 X55.498 Y36.106 E18.80390
G1 X80.606 Y10.998 E19.18491
G1 X80.606 Y10.694 E19.18818
G1 X55.194 Y36.106 E19.57381
G1 X54.890 Y36.106 E19.57708
G1 X80.606 Y10.390 E19.96732
G1 X80.606 Y10.085 E19.97059
G1 X54.585 Y36.106 E20.36545
G1 X54.281 Y36.106 E20.36872
G1 X80.606 Y9.781 E20.76820
G1 X80.606 Y9.477 E20.77146
G1 X53.977 Y36.106 E21.17556
G1 X53.673 Y36.106 E21.17882
G1 X80.606 Y9.173 E21.58753
G1 X80.606 Y8.869 E21.59080
G1 X53.369 Y36.106 E22.00413
G1 X53.065 Y36.106 E22.00739
G1 X80.606 Y8.565 E22.42533
G1 X80.606 Y8.260 E22.42860
G1 X52.760 Y36.106 E22.85116
G1 X52.456 Y36.106 E22.85442
G1 X80.606 Y7.956 E23.28160
G1 X80.606 Y7.652 E23.28486
G1 X52.152 Y36.106 E23.71665
G1 X51.848 Y36.106 E23.71991
G1 X80.606 Y7.348 E24.15632
G1 X80.606 Y7.044 E24.15958
G1 X51.544 Y36.106 E24.60061
G1 X51.240 Y36.106 E24.60387
G1 X80.606 Y6.740 E25.04951
G1 X80.606 Y6.435 E25.05277
G1 X50.935 Y36.106 E25.50302
G1 X50.631 Y36.106 E25.50629
G1 X80.606 Y6.131 E25.96116
G1 X80.606 Y5.894 E25.96371
G1 X80.540 Y5.894 E25.96442
G1 X50.327 Y36.106 E26.42290
G1 X50.023 Y36.106 E26.42616
G1 X80.236 Y5.894 E26.88464
G1 X79.932 Y5.894 E26.88790
G1 X49.719 Y36.106 E27.34638
G1 X49.415 Y36.106 E27.34964
G1 X79.627 Y5.894 E27.80811
G1 X79.323 Y5.894 E27.81138
G1 X49.110 Y36.106 E28.26985
G1 X48.806 Y36.106 E28.27312
G1 X79.019 Y5.894 E28.73159
G1 X78.715 Y5.894 E28.73486
G1 X48.502 Y36.106 E29.19333
G1 X48.198 Y36.106 E29.19660
G1 X78.411 Y5.894 E29.65507
G1 X78.107 Y5.894 E29.65834
G1 X47.894 Y36.106 E30.11681
G1 X47.590 Y36.106 E30.12008
G1 X77.802 Y5.894 E30.57855
G1 X77.498 Y5.894 E30.58181
G1 X47.285 Y36.106 E31.04029
G1 X46.981 Y36.106 E31.04355
G1 X77.194 Y5.894 E31.50203
G1 X76.890 Y5.894 E31.50529
G1 X46.677 Y36.106 E31.96377
G1 X46.373 Y36.106 E31.96703
G1 X76.586 Y5.894 E32.42551
G1 X76.282 Y5.894 E32.42877
G1 X46.069 Y36.106 E32.88725
G1 X45.765 Y36.106 E32.89051
G1 X75.977 Y5.894 E33.34899
G1 X75.673 Y5.894 E33.35225
G1 X45.460 Y36.106 E33.81073
G1 X45.156 Y36.106 E33.81399
G1 X75.369 Y5.894 E34.27246
G1 X75.065 Y5.894 E34.27573
G1 X44.852 Y36.106 E34.73420
G1 X44.548 Y36.106 E34.73747
G1 X74.761 Y5.894 E35.19594
G1 X74.457 Y5.894 E35.19921
G1 X44.244 Y36.106 E35.65768
G1 X43.940 Y36.106 E35.66095
G1 X74.152 Y5.894 E36.11942
G1 X73.848 Y5.894 E36.12269
G1 X43.635 Y36.106 E36.58116
G1 X43.331 Y36.106 E36.58442
G1 X73.544 Y5.894 E37.04290
G1 X73.240 Y5.894 E37.04616
G1 X43.027 Y36.106 E37.50464
G1 X42.723 Y36.106 E37.50790
G1 X72.936 Y5.894 E37.96638
G1 X72.632 Y5.894 E37.96964
G1 X42.419 Y36.106 E38.42812
G1 X42.115 Y36.106 E38.43138
G1 X72.327 Y5.894 E38.88986
G1 X72.023 Y5.894 E38.89312
G1 X41.810 Y36.106 E39.35160
G1 X41.506 Y36.106 E39.35486
G1 X71.719 Y5.894 E39.81334
G1 X71.415 Y5.894 E39.81660
G1 X41.202 Y36.106 E40.27508
G1 X40.898 Y36.106 E40.27834
G1 X71.111 Y5.894 E40.73681
G1 X70.807 Y5.894 E40.74008
G1 X40.594 Y36.106 E41.19855
G1 X40.290 Y36.106 E41.20182
G1 X70.502 Y5.894 E41.66029
G1 X70.198 Y5.894 E41.66356
G1 X39.985 Y36.106 E42.12203
G1 X39.681 Y36.106 E42.12530
G1 X69.894 Y5.894 E42.58377
G1 X69.590 Y5.894 E42.58704
G1 X39.377 Y36.106 E43.04551
G1 X39.073 Y36.106 E43.04877
G1 X69.286 Y5.894 E43.50725
G1 X68.982 Y5.894 E43.51051
G1 X38.769 Y36.106 E43.96899
G1 X38.465 Y36.106 E43.97225
G1 X68.677 Y5.894 E44.43073
G1 X68.373 Y5.894 E44.43399
G1 X38.160 Y36.106 E44.89247
G1 X37.856 Y36.106 E44.89573
G1 X68.069 Y5.894 E45.35421
G1 X67.765 Y5.894 E45.35747
G1 X37.552 Y36.106 E45.81595
G1 X37.248 Y36.106 E45.81921
G1 X67.461 Y5.894 E46.27769
G1 X67.157 Y5.894 E46.28095
G1 X36.944 Y36.106 E46.73943
G1 X36.640 Y36.106 E46.74269
G1 X66.852 Y5.894 E47.20116
G1 X66.548 Y5.894 E47.20443
G1 X36.335 Y36.106 E47.66290
G1 X36.031 Y36.106 E47.66617
G1 X66.244 Y5.894 E48.12464
G1 X65.940 Y5.894 E48.12791
G1 X35.727 Y36.106 E48.58638
G1 X35.423 Y36.106 E48.58965
G1 X65.636 Y5.894 E49.04812
G1 X65.332 Y5.894 E49.05139
G1 X35.394 Y35.832 E49.50569
G1 X35.394 Y35.527 E49.50895
G1 X65.027 Y5.894 E49.95864
G1 X64.723 Y5.894 E49.96191
G1 X35.394 Y35.223 E50.40698
G1 X35.394 Y34.919 E50.41024
G1 X64.419 Y5.894 E50.85070
G1 X64.115 Y5.894 E50.85397
G1 X35.394 Y34.615 E51.28981
G1 X35.394 Y34.311 E51.29307
G1 X63.811 Y5.894 E51.72430
G1 X63.507 Y5.894 E51.72756
G1 X35.394 Y34.007 E52.15417
G1 X35.394 Y33.702 E52.15744
G1 X63.202 Y5.894 E52.57943
G1 X62.898 Y5.894 E52.58269
G1 X35.394 Y33.398 E53.00007
G1 X35.394 Y33.094 E53.00334
G1 X62.594 Y5.894 E53.41610
G1 X62.290 Y5.894 E53.41936
G1 X35.394 Y32.790 E53.82751
G1 X35.394 Y32.486 E53.83078
G1 X61.986 Y5.894 E54.23431
G1 X61.682 Y5.894 E54.23757
G1 X35.394 Y32.182 E54.63649
G1 X35.394 Y31.877 E54.63975
G1 X61.377 Y5.894 E55.03405
G1 X61.073 Y5.894 E55.03732
G1 X35.394 Y31.573 E55.42700
G1 X35.394 Y31.269 E55.43026
G1 X60.769 Y5.894 E55.81533
G1 X60.465 Y5.894 E55.81860
G1 X35.394 Y30.965 E56.19905
G1 X35.394 Y30.661 E56.20231
G1 X60.161 Y5.894 E56.57815
G1 X59.857 Y5.894 E56.58142
G1 X35.394 Y30.357 E56.95264
G1 X35.394 Y30.052 E56.95590
G1 X59.552 Y5.894 E57.32251
G1 X59.248 Y5.894 E57.32577
G1 X35.394 Y29.748 E57.68776
G1 X35.394 Y29.444 E57.69103
G1 X58.944 Y5.894 E58.04840
G1 X58.640 Y5.894 E58.05167
G1 X35.394 Y29.140 E58.40443
G1 X35.394 Y28.836 E58.40769
G1 X58.336 Y5.894 E58.75583
G1 X58.032 Y5.894 E58.75910
G1 X35.394 Y28.532 E59.10262
G1 X35.394 Y28.227 E59.10589
G1 X57.727 Y5.894 E59.44480
G1 X57.423 Y5.894 E59.44806
G1 X35.394 Y27.923 E59.78236
G1 X35.394 Y27.619 E59.78562
G1 X57.119 Y5.894 E60.11531
G1 X56.815 Y5.894 E60.11857
G1 X35.394 Y27.315 E60.44363
G1 X35.394 Y27.011 E60.44690
G1 X56.511 Y5.894 E60.76735
G1 X56.207 Y5.894 E60.77061
G1 X35.394 Y26.707 E61.08645
G1 X35.394 Y26.402 E61.08971
G1 X55.902 Y5.894 E61.40093
G1 X55.598 Y5.894 E61.40419
G1 X35.394 Y26.098 E61.71079
G1 X35.394 Y25.794 E61.71406
G1 X55.294 Y5.894 E62.01604
G1 X54.990 Y5.894 E62.01931
G1 X35.394 Y25.490 E62.31668
G1 X35.394 Y25.186 E62.31994
G1 X54.686 Y5.894 E62.61270
G1 X54.382 Y5.894 E62.61596
G1 X35.394 Y24.882 E62.90410
G1 X35.394 Y24.577 E62.90737
G1 X54.077 Y5.894 E63.19089
G1 X53.773 Y5.894 E63.19415
G1 X35.394 Y24.273 E63.47306
G1 X35.394 Y23.969 E63.47632
G1 X53.469 Y5.894 E63.75062
G1 X53.165 Y5.894 E63.75388
G1 X35.394 Y23.665 E64.02356
G1 X35.394 Y23.361 E64.02682
G1 X52.861 Y5.894 E64.29188
G1 X52.557 Y5.894 E64.29515
G1 X35.394 Y23.057 E64.55559
G1 X35.394 Y22.752 E64.55886
G1 X39.752 Y18.394 E64.62500
G1 X39.448 Y18.394 E64.62826
G1 X35.394 Y22.448 E64.68979
G1 X35.394 Y22.144 E64.69305
G1 X39.144 Y18.394 E64.74997
G1 X38.840 Y18.394 E64.75323
G1 X35.394 Y21.840 E64.80553
G1 X35.394 Y21.536 E64.80879
G1 X38.536 Y18.394 E64.85647
G1 X38.232 Y18.394 E64.85973
G1 X35.394 Y21.232 E64.90280
G1 X35.394 Y20.927 E64.90606
G1 X37.927 Y18.394 E64.94451
G1 X37.623 Y18.394 E64.94778
G1 X35.394 Y20.623 E64.98161
G1 X35.394 Y20.319 E64.98487
G1 X37.319 Y18.394 E65.01409
G1 X37.015 Y18.394 E65.01735
G1 X35.394 Y20.015 E65.04196
G1 X35.394 Y19.711 E65.04522
G1 X36.711 Y18.394 E65.06521
G1 X36.407 Y18.394 E65.06847
G1 X35.394 Y19.407 E65.08384
G1 X35.394 Y19.102 E65.08710
G1 X36.102 Y18.394 E65.09786
G1 X35.798 Y18.394 E65.10112
G1 X35.394 Y18.798 E65.10726
G1 X35.394 Y18.560 E65.10982
G1 X35.632 Y18.560 E65.11237
G1 E62.11237 F2700.00000
G92 E0
G1 X45.394 Y12.752 F4200.000
G1 E3.00000 F2700.00000
G1 F1800
G1 X52.252 Y5.894 E3.10408
G1 X51.948 Y5.894 E3.10734
G1 X45.394 Y12.448 E3.20681
G1 X45.394 Y12.144 E3.21007
G1 X51.644 Y5.894 E3.30492
G1 X51.340 Y5.894 E3.30819
G1 X45.394 Y11.840 E3.39842
G1 X45.394 Y11.536 E3.40168
G1 X51.036 Y5.894 E3.48730
G1 X50.732 Y5.894 E3.49057
G1 X45.394 Y11.232 E3.57157
G1 X45.394 Y10.927 E3.57483
G1 X50.427 Y5.894 E3.65122
G1 X50.123 Y5.894 E3.65448
G1 X45.394 Y10.623 E3.72625
G1 X45.394 Y10.319 E3.72952
G1 X49.819 Y5.894 E3.79667
G1 X49.515 Y5.894 E3.79993
G1 X45.394 Y10.015 E3.86247
G1 X45.394 Y9.711 E3.86574
G1 X49.211 Y5.894 E3.92366
G1 X48.907 Y5.894 E3.92693
G1 X45.394 Y9.407 E3.98023
G1 X45.394 Y9.102 E3.98350
G1 X48.602 Y5.894 E4.03219
G1 X48.298 Y5.894 E4.03545
G1 X45.394 Y8.798 E4.07953
