; Generated by Aprintlab Editor Cloud Slicer (Slic3r Compatibility Mode) on 29-01-2022
M107
M190 S60
M104 S210
G28 X0 Y0
G28 Z0
M109 S210
G21
G90
M82
G92 E0
G1 Z0.100 F4200.000
G1 E-3.00000 F2700.00000
G92 E0
G1 X17.230 Y36.217 F4200.000
G1 E3.00000 F2700.00000
M201 X500 Y500
M204 P500 T500
G1 F1800
G1 X19.585 Y35.242 E3.01891
G1 X20.350 Y35.090 E3.02471
G1 X21.625 Y34.964 E3.03422
G1 X100.375 Y34.964 E3.61876
G1 X101.650 Y35.090 E3.62827
G1 X102.418 Y35.243 E3.63409
G1 X104.771 Y36.218 E3.65299
G1 X105.420 Y36.652 E3.65879
G1 X107.223 Y38.455 E3.67772
G1 X107.657 Y39.104 E3.68351
G1 X108.633 Y41.460 E3.70244
G1 X108.827 Y42.456 E3.70997
G1 X109.887 Y49.008 E3.75924
G1 X109.971 Y50.053 E3.76702
G1 X109.971 Y77.947 E3.97408
G1 X109.887 Y78.992 E3.98185
G1 X108.827 Y85.544 E4.03112
G1 X108.633 Y86.540 E4.03866
G1 X107.657 Y88.896 E4.05759
G1 X107.223 Y89.545 E4.06338
G1 X105.420 Y91.348 E4.08231
G1 X104.771 Y91.782 E4.08810
G1 X102.415 Y92.758 E4.10703
G1 X101.650 Y92.910 E4.11282
G1 X100.375 Y93.036 E4.12233
G1 X21.625 Y93.036 E4.70688
G1 X20.350 Y92.910 E4.71639
G1 X19.584 Y92.758 E4.72218
G1 X17.229 Y91.782 E4.74111
G1 X16.580 Y91.348 E4.74690
G1 X14.777 Y89.545 E4.76583
G1 X14.343 Y88.896 E4.77162
G1 X13.367 Y86.540 E4.79055
G1 X13.215 Y85.775 E4.79634
G1 X13.089 Y84.500 E4.80585
G1 X13.089 Y43.500 E5.11019
G1 X13.215 Y42.225 E5.11970
G1 X13.367 Y41.459 E5.12549
G1 X14.343 Y39.104 E5.14442
G1 X14.777 Y38.455 E5.15021
G1 X16.580 Y36.652 E5.16914
G1 X17.193 Y36.242 E5.17462
G1 X17.330 Y36.365 F4200.000
G1 F1800
G1 X19.619 Y35.417 E5.19301
G1 X20.385 Y35.265 E5.19881
G1 X21.625 Y35.143 E5.20806
G1 X100.375 Y35.143 E5.79260
G1 X101.615 Y35.265 E5.80185
G1 X102.383 Y35.418 E5.80767
G1 X104.672 Y36.367 E5.82606
G1 X105.321 Y36.800 E5.83185
G1 X107.075 Y38.554 E5.85026
G1 X107.508 Y39.203 E5.85606
G1 X108.458 Y41.494 E5.87447
G1 X108.650 Y42.484 E5.88195
G1 X109.711 Y49.037 E5.93123
G1 X109.793 Y50.053 E5.93879
G1 X109.792 Y77.947 E6.14585
G1 X109.711 Y78.963 E6.15341
G1 X108.650 Y85.516 E6.20268
G1 X108.458 Y86.506 E6.21017
G1 X107.508 Y88.797 E6.22858
G1 X107.075 Y89.446 E6.23437
G1 X105.321 Y91.200 E6.25278
G1 X104.672 Y91.633 E6.25858
G1 X102.381 Y92.583 E6.27699
G1 X101.615 Y92.735 E6.28278
G1 X100.375 Y92.857 E6.29203
G1 X21.625 Y92.857 E6.87658
G1 X20.385 Y92.735 E6.88583
G1 X19.619 Y92.583 E6.89162
G1 X17.328 Y91.633 E6.91003
G1 X16.679 Y91.200 E6.91582
G1 X14.925 Y89.446 E6.93424
G1 X14.492 Y88.797 E6.94003
G1 X13.542 Y86.506 E6.95844
G1 X13.390 Y85.740 E6.96423
G1 X13.268 Y84.500 E6.97348
G1 X13.268 Y43.500 E7.27782
G1 X13.390 Y42.260 E7.28707
G1 X13.542 Y41.494 E7.29286
G1 X14.492 Y39.203 E7.31127
G1 X14.925 Y38.554 E7.31707
G1 X16.679 Y36.800 E7.33548
G1 X17.292 Y36.390 E7.34095
G1 X17.429 Y36.514 F4200.000
G1 F1800
G1 X19.654 Y35.592 E7.35883
G1 X20.420 Y35.440 E7.36462
G1 X21.625 Y35.321 E7.37361
G1 X100.375 Y35.321 E7.95816
G1 X101.580 Y35.440 E7.96715
G1 X102.348 Y35.593 E7.97296
G1 X104.573 Y36.515 E7.99084
G1 X105.222 Y36.949 E7.99663
G1 X106.926 Y38.653 E8.01453
G1 X107.360 Y39.302 E8.02032
G1 X108.283 Y41.529 E8.03821
G1 X108.474 Y42.513 E8.04565
G1 X109.535 Y49.065 E8.09492
G1 X109.614 Y50.053 E8.10227
G1 X109.614 Y77.947 E8.30933
G1 X109.535 Y78.934 E8.31668
G1 X108.474 Y85.487 E8.36595
G1 X108.283 Y86.471 E8.37339
G1 X107.360 Y88.698 E8.39129
G1 X106.927 Y89.347 E8.39708
G1 X105.222 Y91.052 E8.41498
G1 X104.573 Y91.485 E8.42077
G1 X102.346 Y92.408 E8.43866
G1 X101.580 Y92.560 E8.44445
G1 X100.375 Y92.679 E8.45345
G1 X21.625 Y92.679 E9.03799
G1 X20.420 Y92.560 E9.04698
G1 X19.654 Y92.408 E9.05278
G1 X17.427 Y91.485 E9.07067
G1 X16.778 Y91.051 E9.07646
G1 X15.074 Y89.347 E9.09436
G1 X14.640 Y88.698 E9.10015
G1 X13.717 Y86.471 E9.11804
G1 X13.565 Y85.705 E9.12384
G1 X13.446 Y84.500 E9.13283
G1 X13.446 Y43.500 E9.43716
G1 X13.565 Y42.295 E9.44615
G1 X13.717 Y41.529 E9.45195
G1 X14.640 Y39.302 E9.46984
G1 X15.074 Y38.653 E9.47563
G1 X16.778 Y36.949 E9.49353
G1 X17.391 Y36.539 E9.49900
G1 E6.49900 F2700.00000
G92 E0
G1 X35.189 Y85.636 F4200.000
G1 E3.00000 F2700.00000
G1 F1800
G1 X35.189 Y42.364 E3.32119
G1 X95.561 Y42.364 E3.76932
G1 X95.561 Y85.636 E4.09051
G1 X35.234 Y85.636 E4.53831
G1 X35.368 Y85.457 F4200.000
G1 F1800
G1 X35.368 Y42.543 E4.85685
G1 X95.382 Y42.543 E5.30232
G1 X95.382 Y85.457 E5.62087
G1 X35.413 Y85.457 E6.06601
G1 X35.546 Y85.279 F4200.000
G1 F1800
G1 X35.546 Y42.721 E6.38190
G1 X95.204 Y42.721 E6.82473
G1 X95.204 Y85.279 E7.14062
G1 X35.591 Y85.279 E7.58311
G1 X35.725 Y85.100 F4200.000
G1 F1800
G1 X35.725 Y42.900 E7.89635
G1 X95.025 Y42.900 E8.33653
G1 X95.025 Y85.100 E8.64977
G1 X35.770 Y85.100 E9.08961
G1 X35.431 Y85.161 F4200.000
G1 X35.725 Y85.864 F4200.000
G1 F1800
G1 X21.688 Y85.864 E9.19381
G1 X21.108 Y85.749 E9.19820
G1 X20.669 Y85.456 E9.20211
G1 X20.376 Y85.017 E9.20603
G1 X20.261 Y84.437 E9.21042
G1 X20.261 Y43.563 E9.51382
G1 X20.376 Y42.983 E9.51821
G1 X20.669 Y42.544 E9.52213
G1 X21.108 Y42.251 E9.52604
G1 X21.688 Y42.136 E9.53043
G1 X100.312 Y42.136 E10.11405
G1 X100.891 Y42.251 E10.11843
G1 X101.331 Y42.544 E10.12236
G1 X101.624 Y42.983 E10.12627
G1 X101.739 Y43.563 E10.13066
G1 X101.739 Y84.437 E10.43406
G1 X101.624 Y85.017 E10.43845
G1 X101.332 Y85.455 E10.44236
G1 X100.892 Y85.749 E10.44629
G1 X100.312 Y85.864 E10.45067
G1 X35.770 Y85.864 E10.92976
G1 X35.725 Y86.043 F4200.000
G1 F1800
G1 X21.670 Y86.043 E11.03409
G1 X21.038 Y85.917 E11.03887
G1 X20.540 Y85.585 E11.04331
G1 X20.208 Y85.087 E11.04776
G1 X20.082 Y84.455 E11.05254
G1 X20.082 Y43.545 E11.35621
G1 X20.208 Y42.913 E11.36099
G1 X20.540 Y42.415 E11.36543
G1 X21.038 Y42.083 E11.36988
G1 X21.670 Y41.957 E11.37466
G1 X100.330 Y41.957 E11.95854
G1 X100.961 Y42.083 E11.96331
G1 X101.460 Y42.415 E11.96777
G1 X101.792 Y42.913 E11.97221
G1 X101.918 Y43.545 E11.97699
G1 X101.918 Y84.455 E12.28066
G1 X101.792 Y85.087 E12.28544
G1 X101.460 Y85.584 E12.28987
G1 X100.962 Y85.917 E12.29433
G1 X100.330 Y86.043 E12.29911
G1 X35.770 Y86.043 E12.77833
G1 X35.725 Y86.221 F4200.000
G1 F1800
G1 X21.652 Y86.221 E12.88279
G1 X20.968 Y86.085 E12.88796
G1 X20.412 Y85.713 E12.89293
G1 X20.040 Y85.157 E12.89790
G1 X19.904 Y84.473 E12.90308
G1 X19.904 Y43.527 E13.20701
G1 X20.040 Y42.843 E13.21219
G1 X20.412 Y42.287 E13.21716
G1 X20.968 Y41.915 E13.22213
G1 X21.652 Y41.779 E13.22730
G1 X100.348 Y41.779 E13.81144
G1 X101.030 Y41.914 E13.81661
G1 X101.588 Y42.287 E13.82159
G1 X101.960 Y42.843 E13.82656
G1 X102.096 Y43.527 E13.83174
G1 X102.096 Y84.473 E14.13567
G1 X101.960 Y85.157 E14.14084
G1 X101.589 Y85.712 E14.14580
G1 X101.032 Y86.085 E14.15078
G1 X100.348 Y86.221 E14.15596
G1 X35.770 Y86.221 E14.63531
G1 X35.725 Y86.400 F4200.000
G1 F1800
G1 X21.635 Y86.400 E14.73990
G1 X20.899 Y86.254 E14.74547
G1 X20.283 Y85.842 E14.75097
G1 X19.871 Y85.226 E14.75646
G1 X19.725 Y84.490 E14.76204
G1 X19.725 Y43.510 E15.06622
G1 X19.871 Y42.774 E15.07180
G1 X20.283 Y42.158 E15.07729
G1 X20.899 Y41.746 E15.08279
G1 X21.635 Y41.600 E15.08836
G1 X100.365 Y41.600 E15.67276
G1 X101.100 Y41.746 E15.67832
G1 X101.717 Y42.158 E15.68383
G1 X102.129 Y42.774 E15.68933
G1 X102.275 Y43.510 E15.69490
G1 X102.275 Y84.490 E15.99909
G1 X102.129 Y85.226 E16.00466
G1 X101.718 Y85.841 E16.01015
G1 X101.101 Y86.254 E16.01566
G1 X100.365 Y86.400 E16.02123
G1 X35.770 Y86.400 E16.50071
G1 X35.575 Y86.140 F4200.000
G1 X35.100 Y85.750 F4200.000
G1 F1800
G1 X95.650 Y85.750 E16.57312
G1 E13.57312 F2700.00000
G92 E0
G1 X101.133 Y85.396 F4200.000
G1 E3.00000 F2700.00000
G1 F1800
G1 X101.273 Y85.256 E3.00147
G1 X101.525 Y84.878 E3.00486
G1 X101.557 Y84.719 E3.00607
G1 X100.594 Y85.682 E3.01622
G1 X100.277 Y85.745 E3.01862
G1 X101.620 Y84.402 E3.03276
G1 X101.630 Y84.139 E3.03472
G1 X100.014 Y85.755 E3.05175
G1 X99.760 Y85.755 E3.05363
G1 X101.630 Y83.885 E3.07333
G1 X101.630 Y83.632 E3.07522
G1 X99.507 Y85.755 E3.09758
G1 X99.254 Y85.755 E3.09946
G1 X101.630 Y83.379 E3.12450
G1 X101.630 Y83.125 E3.12638
G1 X99.000 Y85.755 E3.15408
G1 X98.747 Y85.755 E3.15597
G1 X101.630 Y82.872 E3.18633
G1 X101.630 Y82.619 E3.18822
G1 X98.494 Y85.755 E3.22126
G1 X98.240 Y85.755 E3.22314
G1 X101.630 Y82.365 E3.25885
G1 X101.630 Y82.112 E3.26073
G1 X97.987 Y85.755 E3.29910
G1 X97.734 Y85.755 E3.30099
G1 X101.630 Y81.859 E3.34203
G1 X101.630 Y81.605 E3.34392
G1 X97.480 Y85.755 E3.38762
G1 X97.227 Y85.755 E3.38951
G1 X101.630 Y81.352 E3.43589
G1 X101.630 Y81.099 E3.43777
G1 X96.974 Y85.755 E3.48682
G1 X96.720 Y85.755 E3.48870
G1 X101.630 Y80.845 E3.54042
G1 X101.630 Y80.592 E3.54230
G1 X96.467 Y85.755 E3.59668
G1 X96.214 Y85.755 E3.59857
G1 X101.630 Y80.339 E3.65562
G1 X101.630 Y80.085 E3.65750
G1 X95.960 Y85.755 E3.71722
G1 X95.759 Y85.755 E3.71872
G1 X95.759 Y85.703 E3.71911
G1 X101.630 Y79.832 E3.78095
G1 X101.630 Y79.579 E3.78283
G1 X95.670 Y85.539 E3.84561
G1 X95.670 Y85.286 E3.84750
G1 X101.630 Y79.325 E3.91028
G1 X101.630 Y79.072 E3.91216
G1 X95.670 Y85.033 E3.97494
G1 X95.670 Y84.779 E3.97683
G1 X101.630 Y78.819 E4.03961
G1 X101.630 Y78.565 E4.04149
G1 X95.670 Y84.526 E4.10427
G1 X95.670 Y84.273 E4.10616
G1 X101.630 Y78.312 E4.16894
G1 X101.630 Y78.059 E4.17083
G1 X95.670 Y84.019 E4.23360
G1 X95.670 Y83.766 E4.23549
G1 X101.630 Y77.805 E4.29827
G1 X101.630 Y77.552 E4.30016
G1 X95.670 Y83.513 E4.36293
G1 X95.670 Y83.259 E4.36482
G1 X101.630 Y77.299 E4.42760
G1 X101.630 Y77.045 E4.42949
G1 X95.670 Y83.006 E4.49227
G1 X95.670 Y82.753 E4.49415
G1 X101.630 Y76.792 E4.55693
G1 X101.630 Y76.539 E4.55882
G1 X95.670 Y82.499 E4.62160
G1 X95.670 Y82.246 E4.62348
G1 X101.630 Y76.285 E4.68626
G1 X101.630 Y76.032 E4.68815
G1 X95.670 Y81.993 E4.75093
G1 X95.670 Y81.739 E4.75281
G1 X101.630 Y75.779 E4.81559
G1 X101.630 Y75.525 E4.81748
G1 X95.670 Y81.486 E4.88026
G1 X95.670 Y81.233 E4.88214
G1 X101.630 Y75.272 E4.94492
G1 X101.630 Y75.019 E4.94681
G1 X95.670 Y80.979 E5.00959
G1 X95.670 Y80.726 E5.01147
G1 X101.630 Y74.765 E5.07425
G1 X101.630 Y74.512 E5.07614
G1 X95.670 Y80.473 E5.13892
G1 X95.670 Y80.219 E5.14081
G1 X101.630 Y74.259 E5.20358
G1 X101.630 Y74.005 E5.20547
G1 X95.670 Y79.966 E5.26825
G1 X95.670 Y79.713 E5.27014
G1 X101.630 Y73.752 E5.33292
G1 X101.630 Y73.499 E5.33480
G1 X95.670 Y79.459 E5.39758
G1 X95.670 Y79.206 E5.39947
G1 X101.630 Y73.246 E5.46225
G1 X101.630 Y72.992 E5.46413
G1 X95.670 Y78.953 E5.52691
G1 X95.670 Y78.699 E5.52880
G1 X101.630 Y72.739 E5.59158
G1 X101.630 Y72.486 E5.59346
G1 X95.670 Y78.446 E5.65624
G1 X95.670 Y78.193 E5.65813
G1 X101.630 Y72.232 E5.72091
G1 X101.630 Y71.979 E5.72279
G1 X95.670 Y77.939 E5.78557
G1 X95.670 Y77.686 E5.78746
G1 X101.630 Y71.726 E5.85024
G1 X101.630 Y71.472 E5.85212
G1 X95.670 Y77.433 E5.91490
G1 X95.670 Y77.179 E5.91679
G1 X101.630 Y71.219 E5.97957
G1 X101.630 Y70.966 E5.98146
G1 X95.670 Y76.926 E6.04423
G1 X95.670 Y76.673 E6.04612
G1 X101.630 Y70.712 E6.10890
G1 X101.630 Y70.459 E6.11079
G1 X95.670 Y76.419 E6.17356
G1 X95.670 Y76.166 E6.17545
G1 X101.630 Y70.206 E6.23823
G1 X101.630 Y69.952 E6.24012
G1 X95.670 Y75.913 E6.30290
G1 X95.670 Y75.659 E6.30478
G1 X101.630 Y69.699 E6.36756
G1 X101.630 Y69.446 E6.36945
G1 X95.670 Y75.406 E6.43223
G1 X95.670 Y75.153 E6.43411
G1 X101.630 Y69.192 E6.49689
G1 X101.630 Y68.939 E6.49878
G1 X95.670 Y74.899 E6.56156
G1 X95.670 Y74.646 E6.56344
G1 X101.630 Y68.686 E6.62622
G1 X101.630 Y68.432 E6.62811
G1 X95.670 Y74.393 E6.69089
G1 X95.670 Y74.139 E6.69277
G1 X101.630 Y68.179 E6.75555
G1 X101.630 Y67.926 E6.75744
G1 X95.670 Y73.886 E6.82022
G1 X95.670 Y73.633 E6.82210
G1 X101.630 Y67.672 E6.88488
G1 X101.630 Y67.419 E6.88677
G1 X95.670 Y73.379 E6.94955
G1 X95.670 Y73.126 E6.95144
G1 X101.630 Y67.166 E7.01421
G1 X101.630 Y66.912 E7.01610
G1 X95.670 Y72.873 E7.07888
G1 X95.670 Y72.620 E7.08077
G1 X101.630 Y66.659 E7.14354
G1 X101.630 Y66.406 E7.14543
G1 X95.670 Y72.366 E7.20821
G1 X95.670 Y72.113 E7.21010
G1 X101.630 Y66.152 E7.27288
G1 X101.630 Y65.899 E7.27476
G1 X95.670 Y71.860 E7.33754
G1 X95.670 Y71.606 E7.33943
G1 X101.630 Y65.646 E7.40221
G1 X101.630 Y65.392 E7.40409
G1 X95.670 Y71.353 E7.46687
G1 X95.670 Y71.100 E7.46876
G1 X101.630 Y65.139 E7.53154
G1 X101.630 Y64.886 E7.53342
G1 X95.670 Y70.846 E7.59620
G1 X95.670 Y70.593 E7.59809
G1 X101.630 Y64.632 E7.66087
G1 X101.630 Y64.379 E7.66275
G1 X95.670 Y70.340 E7.72553
G1 X95.670 Y70.086 E7.72742
G1 X101.630 Y64.126 E7.79020
G1 X101.630 Y63.872 E7.79208
G1 X95.670 Y69.833 E7.85486
G1 X95.670 Y69.580 E7.85675
G1 X101.630 Y63.619 E7.91953
G1 X101.630 Y63.366 E7.92142
G1 X95.670 Y69.326 E7.98419
G1 X95.670 Y69.073 E7.98608
G1 X101.630 Y63.112 E8.04886
G1 X101.630 Y62.859 E8.05075
G1 X95.670 Y68.820 E8.11352
G1 X95.670 Y68.566 E8.11541
G1 X101.630 Y62.606 E8.17819
G1 X101.630 Y62.352 E8.18008
G1 X95.670 Y68.313 E8.24286
G1 X95.670 Y68.060 E8.24474
G1 X101.630 Y62.099 E8.30752
G1 X101.630 Y61.846 E8.30941
G1 X95.670 Y67.806 E8.37219
G1 X95.670 Y67.553 E8.37407
G1 X101.630 Y61.592 E8.43685
G1 X101.630 Y61.339 E8.43874
G1 X95.670 Y67.300 E8.50152
G1 X95.670 Y67.046 E8.50340
G1 X101.630 Y61.086 E8.56618
G1 X101.630 Y60.832 E8.56807
G1 X95.670 Y66.793 E8.63085
G1 X95.670 Y66.540 E8.63273
G1 X101.630 Y60.579 E8.69551
G1 X101.630 Y60.326 E8.69740
G1 X95.670 Y66.286 E8.76018
G1 X95.670 Y66.033 E8.76207
G1 X101.630 Y60.072 E8.82484
G1 X101.630 Y59.819 E8.82673
G1 X95.670 Y65.780 E8.88951
G1 X95.670 Y65.526 E8.89140
G1 X101.630 Y59.566 E8.95417
G1 X101.630 Y59.312 E8.95606
G1 X95.670 Y65.273 E9.01884
G1 X95.670 Y65.020 E9.02073
G1 X101.630 Y59.059 E9.08351
G1 X101.630 Y58.806 E9.08539
G1 X95.670 Y64.766 E9.14817
G1 X95.670 Y64.513 E9.15006
G1 X101.630 Y58.552 E9.21284
G1 X101.630 Y58.299 E9.21472
G1 X95.670 Y64.260 E9.27750
G1 X95.670 Y64.006 E9.27939
G1 X101.630 Y58.046 E9.34217
G1 X101.630 Y57.792 E9.34405
G1 X95.670 Y63.753 E9.40683
G1 X95.670 Y63.500 E9.40872
G1 X101.630 Y57.539 E9.47150
G1 X101.630 Y57.286 E9.47338
G1 X95.670 Y63.246 E9.53616
G1 X95.670 Y62.993 E9.53805
G1 X101.630 Y57.032 E9.60083
G1 X101.630 Y56.779 E9.60271
G1 X95.670 Y62.740 E9.66549
G1 X95.670 Y62.486 E9.66738
G1 X101.630 Y56.526 E9.73016
G1 X101.630 Y56.272 E9.73205
G1 X95.670 Y62.233 E9.79482
G1 X95.670 Y61.980 E9.79671
G1 X101.630 Y56.019 E9.85949
G1 X101.630 Y55.766 E9.86138
G1 X95.670 Y61.726 E9.92415
G1 X95.670 Y61.473 E9.92604
G1 X101.630 Y55.512 E9.98882
G1 X101.630 Y55.259 E9.99071
G1 X95.670 Y61.220 E10.05349
G1 X95.670 Y60.966 E10.05537
G1 X101.630 Y55.006 E10.11815
G1 X101.630 Y54.752 E10.12004
G1 X95.670 Y60.713 E10.18282
G1 X95.670 Y60.460 E10.18470
G1 X101.630 Y54.499 E10.24748
G1 X101.630 Y54.246 E10.24937
G1 X95.670 Y60.206 E10.31215
G1 X95.670 Y59.953 E10.31403
G1 X101.630 Y53.992 E10.37681
G1 X101.630 Y53.739 E10.37870
G1 X95.670 Y59.700 E10.44148
G1 X95.670 Y59.446 E10.44336
G1 X101.630 Y53.486 E10.50614
G1 X101.630 Y53.232 E10.50803
G1 X95.670 Y59.193 E10.57081
G1 X95.670 Y58.940 E10.57269
G1 X101.630 Y52.979 E10.63547
G1 X101.630 Y52.726 E10.63736
G1 X95.670 Y58.686 E10.70014
G1 X95.670 Y58.433 E10.70203
G1 X101.630 Y52.472 E10.76480
G1 X101.630 Y52.219 E10.76669
G1 X95.670 Y58.180 E10.82947
G1 X95.670 Y57.926 E10.83136
G1 X101.630 Y51.966 E10.89413
G1 X101.630 Y51.712 E10.89602
G1 X95.670 Y57.673 E10.95880
G1 X95.670 Y57.420 E10.96069
G1 X101.630 Y51.459 E11.02347
G1 X101.630 Y51.206 E11.02535
G1 X95.670 Y57.166 E11.08813
G1 X95.670 Y56.913 E11.09002
G1 X101.630 Y50.952 E11.15280
G1 X101.630 Y50.699 E11.15468
G1 X95.670 Y56.660 E11.21746
G1 X95.670 Y56.406 E11.21935
G1 X101.630 Y50.446 E11.28213
G1 X101.630 Y50.192 E11.28401
G1 X95.670 Y56.153 E11.34679
G1 X95.670 Y55.900 E11.34868
G1 X101.630 Y49.939 E11.41146
G1 X101.630 Y49.686 E11.41334
G1 X95.670 Y55.646 E11.47612
G1 X95.670 Y55.393 E11.47801
G1 X101.630 Y49.432 E11.54079
G1 X101.630 Y49.179 E11.54268
G1 X95.670 Y55.140 E11.60545
G1 X95.670 Y54.886 E11.60734
G1 X101.630 Y48.926 E11.67012
G1 X101.630 Y48.672 E11.67201
G1 X95.670 Y54.633 E11.73478
G1 X95.670 Y54.380 E11.73667
G1 X101.630 Y48.419 E11.79945
G1 X101.630 Y48.166 E11.80134
G1 X95.670 Y54.126 E11.86412
G1 X95.670 Y53.873 E11.86600
G1 X101.630 Y47.912 E11.92878
G1 X101.630 Y47.659 E11.93067
G1 X95.670 Y53.620 E11.99345
